!!!!SEGMENT: pl-sa--233-a-vi-37--001_bach-johann-christian--sinphonia-ex-d-allegro-di-molto.krn
!!!cenid: 17xx:1826
!!!COM: Bach, Johann Christian
!!!COM-rismid: pe2530
!!!CDT: 1735/09/05-1782/01/01
!!!CNT: German
!!!OPR: Sinphonia ex D
!!!OTL: Allegro di molto
!!!PDT:
!!!AGN: Secular
!!!SMS-siglum: PL-SA
!!!SMS-shelfmark: 233/A VI 37
!!!SMS-shelfwork: 001 M
!!!SMS-variant:
!!!SMS-altvar:
!!!NIFC-rismid: 1001035158
!!!URL-scan: http://bc.bdsandomierz.pl/dlibra/publication/1587/edition/1555/content
!!!ONB-nifc: UWAGA: części Sinphonii: 1. Allegro di molto, 2. Andante, 3. Presto
!!!key: D
**kern	**dynam	**kern	**kern	**kern	**dynam	**kern	**kern	**kern	**kern
*part8	*part8	*part7	*part6	*part5	*part5	*part4	*part3	*part2	*part1
*staff8	*	*staff7	*staff6	*staff5	*	*staff4	*staff3	*staff2	*staff1
*I"Basso	*	*I"Alto Viola	*I"Violino Secundo	*I"Violino Primo	*	*I"Cornu Secondo	*I"Cornu Primo in D:	*I"Oboe Secundo	*I"Oboe Primo
*I'Cb	*	*I'Vla	*I'Vn II	*I'Vn I	*	*I'Cor II	*I'Cor I	*I'Ob II	*I'Ob I
*ICstr	*	*ICstr	*	*ICstr	*	*ICbras	*ICbras	*ICww	*ICww
*Icbass	*	*Iviola	*	*Ivioln	*	*Icor	*Icor	*Ioboe	*Ioboe
*clefF4	*	*clefC3	*clefG2	*clefG2	*	*clefG2	*clefG2	*clefG2	*clefG2
*	*	*	*	*	*	*ITrd-1c-2	*ITrd-1c-2	*	*
*k[f#c#]	*	*k[f#c#]	*k[f#c#]	*k[f#c#]	*	*k[f#c#]	*k[f#c#]	*k[f#c#]	*k[f#c#]
*D:	*	*D:	*D:	*D:	*	*D:	*D:	*D:	*D:
*M4/4	*	*M4/4	*M4/4	*M4/4	*	*M4/4	*M4/4	*M4/4	*M4/4
*met(c)	*	*met(c)	*met(c)	*met(c)	*	*met(c)	*met(c)	*met(c)	*met(c)
=1	=1	=1	=1	=1	=1	=1	=1	=1	=1
!LO:TX:a:B:t=Allo Di molto	!	!	!	!	!	!LO:TX:a:B:t=Allo Di molto	!LO:TX:a:B::t=Allo Dimolto	!	!
!!LO:TX:t=P:problem:all\right	!	!	!	!	!	!	!	!	!
*Xtuplet	*	*Xtuplet	*Xtuplet	*Xtuplet	*	*	*	*Xtuplet	*Xtuplet
*4\right	*	*4\right	*	*	*	*	*	*	*
4D\	.	4d`\	4d/	4d/	.	4d/	4d/	4d/	4d/
4F#\	.	4f#`\	4f#/	4f#/	.	4f#/	4f#/	4f#/	4f#/
4A\	.	4`a\	4a/	4a/	.	4a/	4a/	4a/	4a/
4r	.	4r	8r	8r	.	4r	4r	4r	4r
.	.	.	16r	16r	.	.	.	.	.
*	*	*	*32\right	*32\right	*	*	*	*	*
.	.	.	48a\LLL	48a\LLL	.	.	.	.	.
.	.	.	48b\	48b\	.	.	.	.	.
.	.	.	48cc#\JJJ	48cc#\JJJ	.	.	.	.	.
=2	=2	=2	=2	=2	=2	=2	=2	=2	=2
*	*	*	*4\right	*4\right	*	*	*	*	*
4D\	.	4d\	4`dd\	4dd\	.	4d/	4dd\	4dd\	4dd\
4F#\	.	4f#\	4`ff#\	4ff#\	.	4f#/	4ff#\	4ff#\	4ff#\
*	*	*	*	*	*	*	*4\right	*4\right	*4\right
4A\	.	4a\	4`aa\	4aa\	.	4a/	4aa\	4aa\	4aa\
4r	.	4r	8r	8r	.	4r	4r	4r	4r
.	.	.	16r	16r	.	.	.	.	.
.	.	.	48aa\LLL	48aa\LLL	.	.	.	.	.
.	.	.	48bb\	48bb\	.	.	.	.	.
.	.	.	48ccc#\JJJ	48ccc#\JJJ	.	.	.	.	.
=3	=3	=3	=3	=3	=3	=3	=3	=3	=3
*	*	*	*16\right	*	*	*	*	*	*
4D\	.	4d\	16ddd\LL	4ddd\	.	4d/	4dd\	4ff#\	4ddd\
.	.	.	16dd\	.	.	.	.	.	.
.	.	.	16dd\	.	.	.	.	.	.
.	.	.	16dd\JJ	.	.	.	.	.	.
*	*	*	*tremolo	*	*	*	*	*	*
4r	.	4r	16dd\LL	4r	.	4r	4r	4r	4r
.	.	.	16dd\	.	.	.	.	.	.
.	.	.	16dd\	.	.	.	.	.	.
.	.	.	16dd\JJ	.	.	.	.	.	.
4D\	.	4d\	16dd\LL	4ddd\	.	4d/	4dd\	4ff#\	4aa\
.	.	.	16dd\	.	.	.	.	.	.
.	.	.	16dd\	.	.	.	.	.	.
.	.	.	16dd\JJ	.	.	.	.	.	.
.	.	.	.	8qqccc#/	.	.	.	.	.
*	*	*	*	*8\right	*	*	*	*	*
4G\	.	4g\	16dd\LL	8bb\L	.	4d/	4dd\	4gg\	4bb\
.	.	.	16dd\	.	.	.	.	.	.
*	*	*	*	*16\right	*	*	*	*	*
.	.	.	16dd\	16aa\L	.	.	.	.	.
.	.	.	16dd\JJ	16bb\JJ	.	.	.	.	.
=4	=4	=4	=4	=4	=4	=4	=4	=4	=4
4D\	.	4d\	16dd\LL	4aa\	.	4d/	4dd\	4ff#\	4aa\
.	.	.	16dd\	.	.	.	.	.	.
.	.	.	16dd\	.	.	.	.	.	.
.	.	.	16dd\JJ	.	.	.	.	.	.
4r	.	4r	16dd\LL	4r	.	4r	4r	4r	4r
.	.	.	16dd\	.	.	.	.	.	.
.	.	.	16dd\	.	.	.	.	.	.
.	.	.	16dd\JJ	.	.	.	.	.	.
4D\	.	4d\	16dd\LL	4ddd\	.	4d/	4dd\	4ff#\	4aa\
.	.	.	16dd\	.	.	.	.	.	.
.	.	.	16dd\	.	.	.	.	.	.
.	.	.	16dd\JJ	.	.	.	.	.	.
.	.	.	.	4qqccc#/	.	.	.	.	.
4G\	.	4g\	16dd\LL	8bb\L	.	4d/	4dd\	4gg\	4bb\
.	.	.	16dd\	.	.	.	.	.	.
.	.	.	16dd\	16aa\L	.	.	.	.	.
.	.	.	16dd\JJ	16bb\JJ	.	.	.	.	.
=5	=5	=5	=5	=5	=5	=5	=5	=5	=5
4D\	.	4d\	16dd\LL	4aa\	.	4d/	4dd\	4ff#\	4aa\
.	.	.	16dd\	.	.	.	.	.	.
.	.	.	16dd\	.	.	.	.	.	.
.	.	.	16dd\JJ	.	.	.	.	.	.
4r	.	4r	16dd\LL	4r	.	4r	4r	4r	4r
.	.	.	16dd\	.	.	.	.	.	.
.	.	.	16dd\	.	.	.	.	.	.
.	.	.	16dd\JJ	.	.	.	.	.	.
4D\	.	4d\	16dd\LL	4ddd\	.	4d/	4dd\	4ff#\	4gg\
.	.	.	16dd\	.	.	.	.	.	.
.	.	.	16dd\	.	.	.	.	.	.
.	.	.	16dd\JJ	.	.	.	.	.	.
.	.	.	.	4qqccc#/	.	.	.	.	.
4G\	.	4g\	16dd\LL	8bb\L	.	4d/	4dd\	4gg\	4bb\
.	.	.	16dd\	.	.	.	.	.	.
.	.	.	16dd\	16aa\L	.	.	.	.	.
.	.	.	16dd\JJ	16bb\JJ	.	.	.	.	.
=6	=6	=6	=6	=6	=6	=6	=6	=6	=6
*	*	*	*	*	*	*4\right	*	*	*
4D\	.	4d\	16dd\LL	4aa\	.	4dd\	4dd\	4ff#\	4aa\
.	.	.	16dd\	.	.	.	.	.	.
.	.	.	16dd\	.	.	.	.	.	.
.	.	.	16dd\JJ	.	.	.	.	.	.
.	.	.	.	8qqaa/	.	.	.	.	.
4G\	.	4g\	16ee\LL	8gg\L	.	4ee\	4gg\	4ee\	4gg\
.	.	.	16ee\	.	.	.	.	.	.
.	.	.	16ee\	16ff#\L	.	.	.	.	.
.	.	.	16ee\JJ	16gg\JJ	.	.	.	.	.
.	.	.	.	8qqgg/	.	.	.	.	.
4A\	.	4a\	16dd\LL	4ff#\	.	4dd\	4ff#\	4dd\	4ff#\
.	.	.	16dd\	.	.	.	.	.	.
.	.	.	16dd\	.	.	.	.	.	.
.	.	.	16dd\JJ	.	.	.	.	.	.
.	.	.	.	8qqff#/	.	.	.	.	.
4AA/	.	4A/	16cc#\LL	8ee\L	.	4a/	4ee\	4cc#\	4ee\
.	.	.	16cc#\	.	.	.	.	.	.
.	.	.	16cc#\	16dd\L	.	.	.	.	.
.	.	.	16cc#\JJ	16ee\JJ	.	.	.	.	.
=7	=7	=7	=7	=7	=7	=7	=7	=7	=7
!	!	!	!LO:TX:a:t=P:mixedbeam:problem	!	!	!	!	!	!
4D/	.	4d\	16dd/LL	4dd\	.	4f#/	4dd\	4dd\	4dd\
.	.	.	16d/	.	.	.	.	.	.
.	.	.	16d/	.	.	.	.	.	.
.	.	.	16d/JJ	.	.	.	.	.	.
4r	.	4r	16d/LL	4r	.	4r	4r	4r	4r
.	.	.	16d/	.	.	.	.	.	.
.	.	.	16d/	.	.	.	.	.	.
.	.	.	16d/JJ	.	.	.	.	.	.
4D/	.	4d\	16d/LL	4d/ 4dd	.	2r	2r	2r	2r
.	.	.	16d/	.	.	.	.	.	.
.	.	.	16d/	.	.	.	.	.	.
.	.	.	16d/JJ	.	.	.	.	.	.
.	.	.	.	8qqcc#/	.	.	.	.	.
4AA/	.	4G/	16d/LL	8b/L	.	.	.	.	.
.	.	.	16d/	.	.	.	.	.	.
.	.	.	16d/	16a/L	.	.	.	.	.
.	.	.	16d/JJ	16b/JJ	.	.	.	.	.
!	!	!	!	!LO:LB:g=original	!	!	!	!	!
=8	=8	=8	=8	=8	=8	=8	=8	=8	=8
4D\	.	4d\	16d/LL	4a/	.	1r	1r	1r	1r
.	.	.	16d/	.	.	.	.	.	.
.	.	.	16d/	.	.	.	.	.	.
.	.	.	16d/JJ	.	.	.	.	.	.
4r	.	4r	16d/LL	4r	.	.	.	.	.
.	.	.	16d/	.	.	.	.	.	.
.	.	.	16d/	.	.	.	.	.	.
.	.	.	16d/JJ	.	.	.	.	.	.
4D\	.	4d\	16d/LL	4d/ 4dd	.	.	.	.	.
.	.	.	16d/	.	.	.	.	.	.
.	.	.	16d/	.	.	.	.	.	.
.	.	.	16d/JJ	.	.	.	.	.	.
.	.	.	.	8qqcc#/	.	.	.	.	.
4G\	.	4G/	16d/LL	8b/L	.	.	.	.	.
.	.	.	16d/	.	.	.	.	.	.
.	.	.	16d/	16a/L	.	.	.	.	.
.	.	.	16d/JJ	16b/JJ	.	.	.	.	.
!	!	!	!LO:LB:g=original	!	!	!	!	!	!
!LO:LB:g=original	!	!	!	!	!	!	!	!	!
=9	=9	=9	=9	=9	=9	=9	=9	=9	=9
!	!	!	!LO:TX:a:t=P:problem=mixedbeam	!	!	!	!	!	!
4D\	.	4d\	16d/LL	4a/	.	2r	2r	2r	2r
.	.	.	16dd/	.	.	.	.	.	.
.	.	.	16dd/	.	.	.	.	.	.
.	.	.	16dd/JJ	.	.	.	.	.	.
4r	.	4r	16dd\LL	4r	.	.	.	.	.
.	.	.	16dd\	.	.	.	.	.	.
.	.	.	16dd\	.	.	.	.	.	.
.	.	.	16dd\JJ	.	.	.	.	.	.
4D\	.	4d\	16dd\LL	4ddd\	.	4d/	4dd\	4ff#\	4aa\
.	.	.	16dd\	.	.	.	.	.	.
.	.	.	16dd\	.	.	.	.	.	.
.	.	.	16dd\JJ	.	.	.	.	.	.
.	.	.	.	8qqccc#/	.	.	.	.	.
4G\	.	4g\	16dd\LL	8bb\L	.	4d/	4dd\	4gg\	4bb\
.	.	.	16dd\	.	.	.	.	.	.
.	.	.	16dd\	16aa\L	.	.	.	.	.
.	.	.	16dd\JJ	16bb\JJ	.	.	.	.	.
=10	=10	=10	=10	=10	=10	=10	=10	=10	=10
4D\	.	4d\	16dd\LL	4aa\	.	4dd\	4dd\	4ff#\	4aa\
.	.	.	16dd\	.	.	.	.	.	.
.	.	.	16dd\	.	.	.	.	.	.
.	.	.	16dd\JJ	.	.	.	.	.	.
.	.	.	.	8qqaa/	.	.	.	.	.
4G\	.	4g\	16ee\LL	8gg\L	.	4ee\	4gg\	4ee\	4gg\
.	.	.	16ee\	.	.	.	.	.	.
.	.	.	16ee\	16ff#\L	.	.	.	.	.
.	.	.	16ee\JJ	16gg\JJ	.	.	.	.	.
4A\	.	4a\	16dd\LL	4ff#\	.	4dd\	4ff#\	4dd\	4ff#\
.	.	.	16dd\	.	.	.	.	.	.
.	.	.	16dd\	.	.	.	.	.	.
.	.	.	16dd\JJ	.	.	.	.	.	.
.	.	.	.	8qqff#/	.	.	.	.	.
4AA/	.	4A/	16dd\LL	8ee\L	.	4a/	4ee\	4cc#\	4ee\
.	.	.	16dd\	.	.	.	.	.	.
.	.	.	16dd\	16dd\L	.	.	.	.	.
.	.	.	16dd\JJ	16ee\JJ	.	.	.	.	.
!	!	!	!	!	!	!LO:LB:g=original	!	!	!
!	!	!LO:LB:g=original	!	!	!	!	!	!	!
=11	=11	=11	=11	=11	=11	=11	=11	=11	=11
*8\right	*	*8\right	*	*	*	*	*	*	*
8D\L	.	8d\L	4d/ 4dd	4dd\	.	4f#/	4dd\	4dd\	4dd\
8D\	.	8d\	.	.	.	.	.	.	.
*	*	*	*8\right	*	*	*	*	*	*
8D\	.	8d\	8d/L 8a 8ff#	8d/L 8a 8ff#	.	4r	4r	4r	4r
8D\J	.	8d\J	8aa/J	8aa/J	.	.	.	.	.
*tremolo	*	*	*	*	*	*	*	*	*
*2\right	*	*	*	*	*	*	*	*	*
8D\L	.	8d\L	4d/ 4a 4ff#	4d/ 4a 4ff#	.	2r	2r	2r	2r
8D\	.	8d\	.	.	.	.	.	.	.
8D\	.	8d\	8d/L 8a 8ff#	8d/L 8a 8ff#	.	.	.	.	.
8D\J	.	8d\J	8aa/J	8aa/J	.	.	.	.	.
!	!	!	!	!	!	!	!LO:LB:g=original	!	!
=12	=12	=12	=12	=12	=12	=12	=12	=12	=12
*	*	*^	*	*	*	*	*	*	*
*	*	*2\right	*	*	*	*	*	*	*	*
8D\L	.	8a/L	8f#\L	4d/ 4a 4ff#	4d/ 4a 4ff#	.	1d	1dd	1ff#	1aa
8D\	.	8a/	8f#\	.	.	.	.	.	.	.
8D\	.	8a/	8f#\	32dd\LLL	32dd\LLL	.	.	.	.	.
.	.	.	.	32ee\JJ	32ee\JJ	.	.	.	.	.
.	.	.	.	8.ff#\J	8.ff#\J	.	.	.	.	.
8D\J	.	8a/J	8f#\J	.	.	.	.	.	.	.
*	*	*tremolo	*	*	*	*	*	*	*	*
8D\L	.	8a/L	8f#\L	32ff#\LLL	32ff#\LLL	.	.	.	.	.
.	.	.	.	32gg\JJ	32gg\JJ	.	.	.	.	.
.	.	.	.	8.aa\J	8.aa\J	.	.	.	.	.
8D\	.	8a/	8f#\	.	.	.	.	.	.	.
8D\	.	8a/	8f#\	32aa\LLL	32aa\LLL	.	.	.	.	.
.	.	.	.	32bb\JJ	32bb\JJ	.	.	.	.	.
.	.	.	.	8.cccn\J	8.cccn\J	.	.	.	.	.
8D\J	.	8a/J	8f#\J	.	.	.	.	.	.	.
!	!	!	!	!	!	!	!	!	!LO:LB:g=original	!
=13	=13	=13	=13	=13	=13	=13	=13	=13	=13	=13
8D\L	.	8b/L	8g\L	4bb\	4bb\	.	4d/	4dd\	1gg	1bb
8D\	.	8b/	8g\	.	.	.	.	.	.	.
*	*	*	*	*	*	*	*	*8\right	*	*
*	*	*	*	*	*	*	*8\right	*	*	*
8D\	.	8b/	8g\	8g/L 8dd 8bb	8g/L 8dd 8bb	.	8.d/L	8.dd\L	.	.
8D\J	.	8b/J	8g\J	8ddd/J	8ddd/J	.	.	.	.	.
*	*	*	*	*	*	*	*16\right	*16\right	*	*
.	.	.	.	.	.	.	16d/Jk	16dd\Jk	.	.
8D\L	.	8b/L	8g\L	4g/ 4dd 4bb	4g/ 4dd 4ccc#	.	4d/	4dd\	.	.
8D\	.	8b/	8g\	.	.	.	.	.	.	.
8D\	.	8b/	8g\	8g/L 8dd 8bb	8g/L 8dd 8bb	.	4d/	4dd\	.	.
8D\J	.	8b/J	8g\J	8ddd/J	8ddd/J	.	.	.	.	.
!	!	!	!	!	!	!	!	!	!	!LO:LB:g=original
=14	=14	=14	=14	=14	=14	=14	=14	=14	=14	=14
8D\L	.	8b/L	8g\L	4g/ 4dd 4bb	4g/ 4dd 4bb	.	1d	1dd	4g/	(4b\
8D\	.	8b/	8g\	.	.	.	.	.	.	.
8D\	.	8b/	8g\	32gg\LLL	32gg\LLL	.	.	.	(4b\	4dd\)
.	.	.	.	32aa\JJ	32aa\JJ	.	.	.	.	.
.	.	.	.	8.bb\J	8.bb\J	.	.	.	.	.
8D\J	.	8b/J	8g\J	.	.	.	.	.	.	.
8D\L	.	8b/L	8g\L	32bb\LLL	32bb\LLL	.	.	.	4dd\	4gg\
.	.	.	.	32ccc#\JJ	32ccc#\JJ	.	.	.	.	.
.	.	.	.	8.ddd\J	8.ddd\J	.	.	.	.	.
8D\	.	8b/	8g\	.	.	.	.	.	.	.
8D\	.	8b/	8g\	32ddd\LLL	32ddd\LLL	.	.	.	4gg\)	4bb\
.	.	.	.	32ccc#\JJ	32ccc#\JJ	.	.	.	.	.
.	.	.	.	8.bb\J	8.bb\J	.	.	.	.	.
8D\J	.	8b/J	8g\J	.	.	.	.	.	.	.
!	!	!	!	!	!LO:LB:g=original	!	!	!	!	!
=15	=15	=15	=15	=15	=15	=15	=15	=15	=15	=15
8D\L	.	8a/L	8f#\L	4aa\	4aa\	.	4d/	4dd\	1ff#	1aa
8D\	.	8a/	8f#\	.	.	.	.	.	.	.
8D\	.	8a/	8f#\	8d/L 8a 8ff#	8d/L 8a 8ff#	.	8.d/L	8.dd\L	.	.
8D\J	.	8a/J	8f#\J	8aa/J	8aa/J	.	.	.	.	.
.	.	.	.	.	.	.	16d/Jk	16dd\Jk	.	.
8D\L	.	8a/L	8f#\L	4d/ 4a 4ff#	4d/ 4a 4ff#	.	4d/	4dd\	.	.
8D\	.	8a/	8f#\	.	.	.	.	.	.	.
8D\	.	8a/	8f#\	8d/L 8a 8ff#	8d/L 8a 8ff#	.	4d/	4dd\	.	.
8D\J	.	8a/J	8f#\J	8aa/J	8aa/J	.	.	.	.	.
!	!	!	!	!LO:LB:g=original	!	!	!	!	!	!
=16	=16	=16	=16	=16	=16	=16	=16	=16	=16	=16
8D\L	.	8a/L	8f#\L	4d/ 4a 4ff#	4d/ 4a 4ff#	.	1d	1dd	4f#/	4a\
8D\	.	8a/	8f#\	.	.	.	.	.	.	.
8D\	.	8a/	8f#\	32dd\LLL	32dd\LLL	.	.	.	(4a/	4dd\
.	.	.	.	32ee\JJ	32ee\JJ	.	.	.	.	.
.	.	.	.	8.ff#\J	8.ff#\J	.	.	.	.	.
8D\J	.	8a/J	8f#\J	.	.	.	.	.	.	.
8D\L	.	8a/L	8f#\L	32ff#\LLL	32ff#\LLL	.	.	.	4dd\)	4ff#\
.	.	.	.	32gg\JJ	32gg\JJ	.	.	.	.	.
.	.	.	.	8.aa\J	8.aa\J	.	.	.	.	.
8D\	.	8a/	8f#\	.	.	.	.	.	.	.
8D\	.	8a/	8f#\	32aa\LLL	32aa\LLL	.	.	.	4ff#\	4aa\
.	.	.	.	32gg\JJ	32gg\JJ	.	.	.	.	.
.	.	.	.	8.ff#\J	8.ff#\J	.	.	.	.	.
8D\J	.	8a/J	8f#\J	.	.	.	.	.	.	.
*	*	*v	*v	*	*	*	*	*	*	*
=17	=17	=17	=17	=17	=17	=17	=17	=17	=17
*	*	*	*	*	*	*	*	*2\right	*2\right
8E\L	.	8g\L	32gg\LLL	32gg\LLL	.	4a/	4ee\	2ee\	2gg\
.	.	.	32ff#\JJ	32ff#\JJ	.	.	.	.	.
.	.	.	8.ee\J	8.ee\J	.	.	.	.	.
8E\	.	8g\	.	.	.	.	.	.	.
8C#\	.	8c#\	32bb\LLL	32bb\LLL	.	4r	4r	.	.
.	.	.	32aa\JJ	32aa\JJ	.	.	.	.	.
.	.	.	8.gg\J	8.gg\J	.	.	.	.	.
8C#\J	.	8c#\J	.	.	.	.	.	.	.
8D\L	.	8d\L	32ff#\LLL	32ff#\LLL	.	4dd\	4ff#\	2dd\	2ff#\
.	.	.	32ee\JJ	32ee\JJ	.	.	.	.	.
.	.	.	8.dd\J	8.dd\J	.	.	.	.	.
8D\	.	8d\	.	.	.	.	.	.	.
8D\	.	8d\	32aa\LLL	32aa\LLL	.	4r	4r	.	.
.	.	.	32gg\JJ	32gg\JJ	.	.	.	.	.
.	.	.	8.ff#\J	8.ff#\J	.	.	.	.	.
8D\J	.	8d\J	.	.	.	.	.	.	.
!LO:LB:g=original	!	!	!	!	!	!	!	!	!
=18	=18	=18	=18	=18	=18	=18	=18	=18	=18
*	*	*	*	*	*	*	*	*	*8\right
*	*	*	*2\right	*	*	*	*	*	*
4AA/	.	8A/	8ee\L	8ee\L	.	4a/	4ee\	4cc#\	8ee\
.	.	8r	8aa\	8aa\	.	.	.	.	8r
4r	.	4r	8aa\	8aa\	.	4r	4r	4r	4r
.	.	.	8aa\J	8aa\J	.	.	.	.	.
2r	.	2r	8aa\L	8aa\L	.	4r	4r	2r	2r
.	.	.	8aa\	8aa\	.	.	.	.	.
.	.	.	8aa\	8aa\	.	8.a/L	8.ee\L	.	.
.	.	.	8aa\J	8aa\J	.	.	.	.	.
.	.	.	.	.	.	16a/Jk	16ee\Jk	.	.
=19	=19	=19	=19	=19	=19	=19	=19	=19	=19
1r	.	1r	8aa\L	8aa\L	.	4dd\	4ff#\	2r	2r
.	.	.	8aa\	8aa\	.	.	.	.	.
.	.	.	8aa\	8aa\	.	4a/	4ee\	.	.
.	.	.	8aa\J	8aa\J	.	.	.	.	.
.	.	.	8aa\L	8aa\L	.	4f#/	4dd\	4r	4r
.	.	.	8aa\	8aa\	.	.	.	.	.
!	!	!	!	!	!	!	!	!LO:TX:a:t=Solo	!
.	.	.	8aa\	8aa\	.	4d/	4ff#\	4dd\	4ff#\
.	.	.	8aa\J	8aa\J	.	.	.	.	.
=20	=20	=20	=20	=20	=20	=20	=20	=20	=20
8AA/	.	4A/	8aa\L	8aa\L	.	4a/	4ee\	4cc#\	4ee\
8r	.	.	8aa\	8aa\	.	.	.	.	.
4r	.	4r	8aa\	8aa\	.	4r	4r	4dd\	4ff#\
.	.	.	8aa\J	8aa\J	.	.	.	.	.
.	.	.	.	.	.	.	.	8qqff#/	8qqgg/
2r	.	2r	8aa\L	8aa\L	.	4r	4r	4ee\	4gg\
.	.	.	8aa\	8aa\	.	.	.	.	.
*	*	*	*	*	*	*	*	*16\right	*
.	.	.	8aa\	8aa\	.	8.a/L	8.ee\L	(16dd\KL	8.ff#\L
*	*	*	*	*	*	*	*	*8\right	*
.	.	.	.	.	.	.	.	8.cc#\J)	.
.	.	.	8aa\J	8aa\J	.	.	.	.	.
*	*	*	*	*	*	*	*	*	*16\right
.	.	.	.	.	.	16a/Jk	16ee\Jk	.	16ee\Jk
!	!	!	!	!LO:LB:g=original	!	!	!	!	!
=21	=21	=21	=21	=21	=21	=21	=21	=21	=21
*	*	*	*	*2\right	*	*	*	*	*
*	*	*	*	*tremolo	*	*	*	*	*
1r	.	1r	8aa\L	8aa\L	.	4dd\	4ff#\	4dd\	4ff#\
.	.	.	8aa\	8aa\	.	.	.	.	.
.	.	.	8aa\	8aa\	.	4a/	4ee\	4r	4r
.	.	.	8aa\J	8aa\J	.	.	.	.	.
.	.	.	8aa\L	8aa\L	.	4f#/	4dd\	4r	4r
.	.	.	8aa\	8aa\	.	.	.	.	.
.	.	.	8aa\	8aa\	.	4d/	4ff#\	4dd\	4ff#\
.	.	.	8aa\J	8aa\J	.	.	.	.	.
!	!	!	!	!	!	!	!LO:LB:g=original	!	!
!	!	!	!	!	!	!LO:LB:g=original	!	!	!
=22	=22	=22	=22	=22	=22	=22	=22	=22	=22
8AA/	.	8A/	8aa\L	8aa\L	.	4a/	4ee\	4cc#\	4ee\
8r	.	8r	8aa\	8aa\	.	.	.	.	.
4r	.	4r	8aa\	8aa\	.	8r	4r	4dd\	4ff#\
.	.	.	8aa\J	8aa\J	.	8r	.	.	.
.	.	.	.	.	.	.	.	8qqff#/	8qaa/
2r	.	2r	8aa\L	8aa\L	.	2r	2r	4ee\	4ff#\
.	.	.	8aa\	8aa\	.	.	.	.	.
.	.	.	8aa\	8aa\	.	.	.	(16dd\KL	16ff#\KL
!	!	!	!	!	!	!	!	!	!LO:N:vis=8.
.	.	.	.	.	.	.	.	8.cc#\J)	8.ee\J
.	.	.	8aa\J	8aa\J	.	.	.	.	.
!	!	!LO:LB:g=original	!	!	!	!	!	!	!
=23	=23	=23	=23	=23	=23	=23	=23	=23	=23
8D\L	.	8d\L	4d/ 4a 4ff#	4d/ 4a 4ff#	.	4dd\	4ff#\	4dd\	4ff#\
8D\	.	8f#\	.	.	.	.	.	.	.
8D\	.	8f#\	32aa\LLL	32aa\LLL	.	4r	4r	4r	4r
.	.	.	32gg\JJ	32gg\JJ	.	.	.	.	.
.	.	.	8.ff#\J	8.ff#\J	.	.	.	.	.
8D\J	.	8a\J	.	.	.	.	.	.	.
8D\L	.	8d\L	4d/ 4a 4ff#	4d/ 4a 4ff#	.	2r	2r	2r	2r
8D\	.	8f#\	.	.	.	.	.	.	.
8D\	.	8f#\	32aa\LLL	32aa\LLL	.	.	.	.	.
.	.	.	32gg\JJ	32gg\JJ	.	.	.	.	.
.	.	.	8.ff#\J	8.ff#\J	.	.	.	.	.
8D\J	.	8a\J	.	.	.	.	.	.	.
!	!	!	!	!	!	!	!	!	!LO:LB:g=original
!	!	!	!LO:LB:g=original	!	!	!	!	!	!
=24	=24	=24	=24	=24	=24	=24	=24	=24	=24
8D\L	.	8e\L	4e/ 4b 4gg#X	4e/ 4b 4gg#X	.	4ee\	4ee\	4b\	4gg#X\
8D\	.	8g#X\	.	.	.	.	.	.	.
8D\	.	8g#\	32bb\LLL	32bb\LLL	.	4r	4r	4r	4r
.	.	.	32aa\JJ	32aa\JJ	.	.	.	.	.
.	.	.	8.gg#\J	8.gg#X\J	.	.	.	.	.
8D\J	.	8b\J	.	.	.	.	.	.	.
.	.	.	16qqgg#/	.	.	.	.	.	.
8D\L	.	8e\L	4e/ 4b 4gg#	4e/ 4b 4gg#X	.	2r	2r	2r	2r
8D\	.	8g#\	.	.	.	.	.	.	.
8D\	.	8g#\	32bb\LLL	32bb\LLL	.	.	.	.	.
.	.	.	32aa\JJ	32aa\JJ	.	.	.	.	.
!	!	!	!LO:N:vis=8	!	!	!	!	!	!
.	.	.	8.gg#\J	8.gg#\J	.	.	.	.	.
8D\J	.	8b\J	.	.	.	.	.	.	.
=25	=25	=25	=25	=25	=25	=25	=25	=25	=25
8C#/L	.	8c#/L	16aa\LL	16aa\LL	.	4a/	4aa\	1cc#	1aa
.	.	.	16cc#\	16aa\	.	.	.	.	.
8AA/	.	8A/	16cc#\	16aa\	.	.	.	.	.
.	.	.	16cc#\JJ	16aa\JJ	.	.	.	.	.
8BB/	.	8B/	16cc#\LL	16aa\LL	.	4r	4r	.	.
.	.	.	16cc#\	16aa\	.	.	.	.	.
8C#/J	.	8c#/J	16cc#\	16aa\	.	.	.	.	.
.	.	.	16cc#\JJ	16aa\JJ	.	.	.	.	.
8D\L	.	8d\L	16cc#\LL	16aa\LL	.	2r	2r	.	.
.	.	.	16cc#\	16aa\	.	.	.	.	.
8E\	.	8e\	16cc#\	16aa\	.	.	.	.	.
.	.	.	16cc#\JJ	16aa\JJ	.	.	.	.	.
8F#\	.	8f#\	16cc#\LL	16aa\LL	.	.	.	.	.
.	.	.	16cc#\	16aa\	.	.	.	.	.
8G#X\J	.	8g#X\J	16cc#\	16aa\	.	.	.	.	.
.	.	.	16cc#\JJ	16aa\JJ	.	.	.	.	.
!	!	!	!	!	!	!	!	!LO:LB:g=original	!
=26	=26	=26	=26	=26	=26	=26	=26	=26	=26
8A\L	.	8a\L	16cc#\LL	16aa\LL	.	1a	1aa	8cc#\L	8aa\L
.	.	.	16cc#\	16aa\	.	.	.	.	.
8A\	.	8a\	16a\	16cc#\	.	.	.	8a\	8cc#\
.	.	.	16a\JJ	16cc#\JJ	.	.	.	.	.
8A\	.	8a\	16b\LL	16dd\LL	.	.	.	8b\	8dd\
.	.	.	16b\	16dd\	.	.	.	.	.
8A\J	.	8a\J	16cc#\	16ee\	.	.	.	8cc#\J	8ee\J
.	.	.	16cc#\JJ	16ee\JJ	.	.	.	.	.
8A\L	.	8a\L	16dd\LL	16ff#\LL	.	.	.	8dd\L	8ff#\L
.	.	.	16dd\	16ff#\	.	.	.	.	.
8A\	.	8a\	16cc#\	16ee\	.	.	.	8cc#\	8ee\
.	.	.	16cc#\JJ	16ee\JJ	.	.	.	.	.
8A\	.	8a\	16dd\LL	16ff#\LL	.	.	.	8dd\	8ff#\
.	.	.	16dd\	16ff#\	.	.	.	.	.
8A\J	.	8a\J	16b\	16gg#X\	.	.	.	8b\J	8gg#X\J
.	.	.	16b\JJ	16gg#\JJ	.	.	.	.	.
!	!	!	!	!LO:LB:g=original	!	!	!	!	!
!LO:LB:g=original	!	!	!	!	!	!	!	!	!
=27	=27	=27	=27	=27	=27	=27	=27	=27	=27
!LO:TX:a:t=P:problem=mixedbeam	!	!LO:TX:a:t=P:problem=mixedbeam	!	!	!	!	!	!	!
8A\L	.	8a\L	16a\LL	16aa\LL	.	4a/	4aa\	1cc#	1aa
.	.	.	16cc#\	16aa\	.	.	.	.	.
8AA\	.	8A\	16cc#\	16aa\	.	.	.	.	.
.	.	.	16cc#\JJ	16aa\JJ	.	.	.	.	.
8BB\	.	8B\	16cc#\LL	16aa\LL	.	4r	4r	.	.
.	.	.	16cc#\	16aa\	.	.	.	.	.
8C#\J	.	8c#\J	16cc#\	16aa\	.	.	.	.	.
.	.	.	16cc#\JJ	16aa\JJ	.	.	.	.	.
8D\L	.	8d\L	16cc#\LL	16aa\LL	.	2r	2r	.	.
.	.	.	16cc#\	16aa\	.	.	.	.	.
8E\	.	8e\	16cc#\	16aa\	.	.	.	.	.
.	.	.	16cc#\JJ	16aa\JJ	.	.	.	.	.
8F#\	.	8f#\	16cc#\LL	16aa\LL	.	.	.	.	.
.	.	.	16cc#\	16aa\	.	.	.	.	.
8G#X\J	.	8g#X\J	16cc#\	16aa\	.	.	.	.	.
.	.	.	16cc#\JJ	16aa\JJ	.	.	.	.	.
=28	=28	=28	=28	=28	=28	=28	=28	=28	=28
8A\L	.	8a\L	16cc#\LL	16aa\LL	.	1a	1aa	8cc#\L	8aa\L
.	.	.	16cc#\	16aa\	.	.	.	.	.
8A\	.	8a\	16a\	16cc#\	.	.	.	8a\	8cc#\
.	.	.	16a\JJ	16cc#\JJ	.	.	.	.	.
8A\	.	8a\	16b\LL	16dd\LL	.	.	.	8b\	8dd\
.	.	.	16b\	16dd\	.	.	.	.	.
8A\J	.	8a\J	16cc#\	16ee\	.	.	.	8cc#\J	8ee\J
.	.	.	16cc#\JJ	16ee\JJ	.	.	.	.	.
8A\L	.	8a\L	16dd\LL	16ff#\LL	.	.	.	8dd\L	8ff#\L
.	.	.	16dd\	16ff#\	.	.	.	.	.
8A\	.	8a\	16cc#\	16ee\	.	.	.	8cc#\	8ee\
.	.	.	16cc#\JJ	16ee\JJ	.	.	.	.	.
8A\	.	8a\	16dd\LL	16ff#\LL	.	.	.	8dd\	8ff#\
.	.	.	16dd\	16ff#\	.	.	.	.	.
8A\J	.	8a\J	16b\	16gg#X\	.	.	.	8b\J	8gg#X\J
.	.	.	16b\JJ	16gg#\JJ	.	.	.	.	.
=29	=29	=29	=29	=29	=29	=29	=29	=29	=29
8AA/L	.	8a\L	4cc#\	4aa\	.	4a/	4aa\	4cc#\	4aa\
8AA/	.	8a\	.	.	.	.	.	.	.
8AA/	.	8c#\	32aa\LLL	32aa\LLL	.	4r	4r	4r	4r
.	.	.	32bb\JJ	32bb\JJ	.	.	.	.	.
.	.	.	8.ccc#\J	8.ccc#\J	.	.	.	.	.
!	!	!	!LO:LB:g=original	!	!	!	!	!	!
8AA/J	.	8c#\J	.	.	.	.	.	.	.
8AA/L	.	8c#\L	32aa\LLL	32aa\LLL	.	2r	2r	2r	2r
.	.	.	32bb\JJ	32bb\JJ	.	.	.	.	.
.	.	.	8.ccc#\J	8.ccc#\J	.	.	.	.	.
8AA/	.	8c#\	.	.	.	.	.	.	.
8AA/	.	8c#\	32aa\LLL	32aa\LLL	.	.	.	.	.
.	.	.	32bb\JJ	32bb\JJ	.	.	.	.	.
.	.	.	8.ccc#\J	8.ccc#\J	.	.	.	.	.
8AA/J	.	8c#\J	.	.	.	.	.	.	.
=30	=30	=30	=30	=30	=30	=30	=30	=30	=30
8D\L	.	8d\L	4d/ 4a 4ff#	4d/ 4a 4ff#	.	4dd\	4ff#\	4dd\	4ff#\
8D\	.	8d\	.	.	.	.	.	.	.
8D\	.	8a\	32ff#\LLL	32ff#\LLL	.	4r	4r	4r	4r
.	.	.	32gg#X\JJ	32gg#X\JJ	.	.	.	.	.
.	.	.	8.aa\J	8.aa\J	.	.	.	.	.
8D\J	.	8a\J	.	.	.	.	.	.	.
8D\L	.	8a\L	32ff#\LLL	32ff#\LLL	.	2r	2r	2r	2r
.	.	.	32gg#\JJ	32gg#\JJ	.	.	.	.	.
.	.	.	8.aa\J	8.aa\J	.	.	.	.	.
8D\	.	8a\	.	.	.	.	.	.	.
8D\	.	8a\	32ff#\LLL	32ff#\LLL	.	.	.	.	.
.	.	.	32gg#\JJ	32gg#\JJ	.	.	.	.	.
.	.	.	8.aa\J	8.aa\J	.	.	.	.	.
8D\J	.	8a\J	.	.	.	.	.	.	.
=31	=31	=31	=31	=31	=31	=31	=31	=31	=31
8D\L	.	8f#\L	32b\LLL	32b\LLL	.	4dd\	4ff#\	4b\	4dd\
.	.	.	32cc#\JJ	32cc#\JJ	.	.	.	.	.
.	.	.	8.dd\J	8.dd\J	.	.	.	.	.
8D\	.	8f#\	.	.	.	.	.	.	.
8D\	.	8f#\	32dd\LLL	32dd\LLL	.	4r	4r	4r	4r
.	.	.	32ee\JJ	32ee\JJ	.	.	.	.	.
.	.	.	8.ff#\J	8.ff#\J	.	.	.	.	.
8D\J	.	8f#\J	.	.	.	.	.	.	.
8D\L	.	8f#\L	32ff#\LLL	32ff#\LLL	.	2r	2r	2r	2r
.	.	.	32ee\JJ	32ee\JJ	.	.	.	.	.
.	.	.	8.dd\J	8.dd\J	.	.	.	.	.
8D\	.	8f#\	.	.	.	.	.	.	.
8D\	.	8f#\	32cc#\LLL	32cc#\LLL	.	.	.	.	.
.	.	.	32b\JJ	32b\JJ	.	.	.	.	.
.	.	.	8.a\J	8.a\J	.	.	.	.	.
8D\J	.	8f#\J	.	.	.	.	.	.	.
!	!	!	!	!LO:LB:g=original	!	!	!	!	!
=32	=32	=32	=32	=32	=32	=32	=32	=32	=32
8E\L	.	8e\L	4e/ 4b 4ee	4e/ 4b 4ee	.	4ee\	4ee\	4g#X/	4ee\
8E\	.	8e\	.	.	.	.	.	.	.
8D\	.	8e\	4e/ 4b 4gg#X	4e/ 4b 4gg#X	.	8.ee\L	8.ee\L	4b/	4gg#X\
8D\J	.	8e\J	.	.	.	.	.	.	.
.	.	.	.	.	.	16ee\Jk	16ee\Jk	.	.
8C#\L	.	8e\L	4e/ 4cc# 4aa	4e/ 4cc# 4aa	.	4ee\	4ee\	4cc#/	4aa\
8C#\	.	8e\	.	.	.	.	.	.	.
8D\	.	8e\	4f#/ 4dd	4f#/ 4dd	.	4dd\	4ff#\	4a/	4dd\
8D\J	.	8e\J	.	.	.	.	.	.	.
!	!	!LO:LB:g=original	!	!	!	!	!	!	!
=33	=33	=33	=33	=33	=33	=33	=33	=33	=33
8E\L	.	8e\L	16cc#\LL	16cc#\LL	.	1ee	1ee	1a	1cc#
.	.	.	16cc#\	16aa\	.	.	.	.	.
8E\	.	8e\	16cc#\	16aa\	.	.	.	.	.
.	.	.	16cc#\JJ	16aa\JJ	.	.	.	.	.
8E\	.	8e\	16cc#\LL	16aa\LL	.	.	.	.	.
.	.	.	16cc#\	16aa\	.	.	.	.	.
8E\J	.	8e\J	16cc#\	16aa\	.	.	.	.	.
.	.	.	16cc#\JJ	16aa\JJ	.	.	.	.	.
8E\L	.	8e\L	16a\LL	16cc#\LL	.	.	.	.	.
.	.	.	16cc#\	16aa\	.	.	.	.	.
8E\	.	8e\	16cc#\	16aa\	.	.	.	.	.
.	.	.	16cc#\JJ	16aa\JJ	.	.	.	.	.
8E\	.	8e\	16cc#\LL	16aa\LL	.	.	.	.	.
.	.	.	16cc#\	16aa\	.	.	.	.	.
8E\J	.	8e\J	16cc#\	16aa\	.	.	.	.	.
.	.	.	16cc#\JJ	16aa\JJ	.	.	.	.	.
=34	=34	=34	=34	=34	=34	=34	=34	=34	=34
8E\L	.	8e\L	16g#X/LL	16b\LL	.	1ee	1ee	1g#X	1bT
.	.	.	16b/	16gg#X\	.	.	.	.	.
8E\	.	8e\	16b/	16gg#\	.	.	.	.	.
.	.	.	16b/JJ	16gg#\JJ	.	.	.	.	.
8E\	.	8e\	16b/LL	16gg#X\LL	.	.	.	.	.
.	.	.	16b/	16gg#X\	.	.	.	.	.
8E\J	.	8e\J	16b/	16gg#X\	.	.	.	.	.
.	.	.	16b/JJ	16gg#X\JJ	.	.	.	.	.
8E\L	.	8e\L	16g#X/LL	16b\LL	.	.	.	.	.
.	.	.	16b/	16gg#\	.	.	.	.	.
8E\	.	8e\	16b/	16gg#\	.	.	.	.	.
.	.	.	16b/JJ	16gg#\JJ	.	.	.	.	.
8E\	.	8e\	16b/LL	16b\LL	.	.	.	.	.
.	.	.	16b/	16gg#\	.	.	.	.	.
8E\J	.	8e\J	16b/	16gg#\	.	.	.	.	.
.	.	.	16b/JJ	16gg#\JJ	.	.	.	.	.
!	!	!	!	!	!	!	!LO:LB:g=original	!	!
!LO:LB:g=original	!	!	!	!	!	!	!	!	!
=35	=35	=35	=35	=35	=35	=35	=35	=35	=35
4AA/	.	4A/	4cc#\	4aa\	.	4a/	4ee\	4a/	4cc#\
8r	.	8r	8r	8r	.	4r	4r	4r	4r
16r	.	16r	16r	16r	.	.	.	.	.
*32\right	*	*32\right	*	*	*	*	*	*	*
48A\LLL	.	48a\LLL	48a/LLL	48a/LLL	.	.	.	.	.
48G#X\	.	48g\	48g#X/	48g#X/	.	.	.	.	.
48F#\JJJ	.	48f#\JJJ	48f#/JJJ	48f#/JJJ	.	.	.	.	.
!	!	!	!LO:LB:g=original	!	!	!	!	!	!
8E\L	.	8e\L	8e/L	8e/L	.	2r	2r	2r	2r
8F#\	.	8f#\	8f#/	8f#/	.	.	.	.	.
8E\	.	8e\	8e/	8e/	.	.	.	.	.
8D\J	.	8d\J	8d/J	8d/J	.	.	.	.	.
!	!	!	!	!	!	!LO:LB:g=original	!	!	!
=36	=36	=36	=36	=36	=36	=36	=36	=36	=36
!	!	!	!	!	!	!	!LO:TX:a:t=1	!	!LO:TX:a:t=1
4C#/	.	4c#\	4c#/	4c#/	.	1r	1r	1r	1r
8r	.	8r	8r	8r	.	.	.	.	.
16r	.	16r	16r	16r	.	.	.	.	.
48F#\LLL	.	48f#\LLL	48f#/LLL	48f#/LLL	.	.	.	.	.
48E\	.	48e\	48e/	48e/	.	.	.	.	.
48D\JJJ	.	48d\JJJ	48d/JJJ	48d/JJJ	.	.	.	.	.
8C#/L	.	8c#\L	8c#/L	8c#/L	.	.	.	.	.
8D/	.	8d\	8d/	8d/	.	.	.	.	.
8C#/	.	8c#\	8c#/	8c#/	.	.	.	.	.
8BB/J	.	8B\J	8B/J	8B/J	.	.	.	.	.
!	!	!	!	!	!	!	!	!	!LO:LB:g=original
=37	=37	=37	=37	=37	=37	=37	=37	=37	=37
8AA/L	.	8A/L	4A/	4A/	.	4r	4r	4r	4r
8C#/	.	8c#/	.	.	.	.	.	.	.
8E/	.	8e/	4A/ 4e 4cc# 4aa	4A/ 4e 4cc# 4aa	.	8.a/L	8.ee\L	4cc#\	4aa\
8C#/J	.	8c#/J	.	.	.	.	.	.	.
.	.	.	.	.	.	16a/Jk	16ee\Jk	.	.
4AA/	.	4A/	4A/ 4e 4cc# 4gg	4A/ 4e 4cc# 4aa	.	4a/	4ee\	4cc#\	4aa\
4r	.	4r	4r	4r	.	4r	4r	4r	4r
=38	=38	=38	=38	=38	=38	=38	=38	=38	=38
1r	.	1r	1r	8A/L	.	1r	1r	1r	1r
.	.	.	.	8A/	.	.	.	.	.
!	!	!	!	!	!LO:DY:a	!	!	!	!
.	.	.	.	8A/	p	.	.	.	.
.	.	.	.	8A/J	.	.	.	.	.
!	!	!	!	!LO:LB:g=original	!	!	!	!	!
.	.	.	.	8A/L	.	.	.	.	.
.	.	.	.	8A/	.	.	.	.	.
.	.	.	.	8A/	.	.	.	.	.
.	.	.	.	8A/J	.	.	.	.	.
=39	=39	=39	=39	=39	=39	=39	=39	=39	=39
1r	.	1r	8A/L	8c#/L	.	1r	1r	1r	1r
.	.	.	8A/	8c#/	.	.	.	.	.
.	.	.	8A/	8c#/	.	.	.	.	.
.	.	.	8A/J	8c#/J	.	.	.	.	.
.	.	.	8A/L	8c#/L	.	.	.	.	.
.	.	.	8A/	8c#/	.	.	.	.	.
.	.	.	8A/	8c#/	.	.	.	.	.
.	.	.	8A/J	8c#/J	.	.	.	.	.
=40	=40	=40	=40	=40	=40	=40	=40	=40	=40
1r	.	8A/L	8c#/L	8e/L	.	1r	1r	1r	1r
.	.	8A/	8c#/	8e/	.	.	.	.	.
.	.	8A/	8c#/	8e/	.	.	.	.	.
.	.	8A/J	8c#/J	8e/J	.	.	.	.	.
.	.	8A/L	8c#/L	8e/L	.	.	.	.	.
.	.	8A/	8c#/	8e/	.	.	.	.	.
.	.	8c#/	8c#/	8e/	.	.	.	.	.
.	.	8c#/J	8c#/J	8e/J	.	.	.	.	.
=41	=41	=41	=41	=41	=41	=41	=41	=41	=41
!	!LO:DY:a	!	!	!	!	!	!	!	!
8AA/L	p	8c#\L	8e/L	8g/L	.	1r	1r	1e	1a
8AA/	.	8c#\	8e/	8g/	.	.	.	.	.
8AA/	.	8c#\	8e/	8g/	.	.	.	.	.
8AA/J	.	8c#\J	8e/J	8g/J	.	.	.	.	.
8AA/L	.	8c#\L	8e/L	8g/L	.	.	.	.	.
8AA/	.	8c#\	8e/	8g/	.	.	.	.	.
8AA/	.	8c#\	8e/	8g/	.	.	.	.	.
8AA/J	.	8c#\J	8e/J	8g/J	.	.	.	.	.
!	!	!	!	!	!	!	!	!LO:LB:g=original	!
=42	=42	=42	=42	=42	=42	=42	=42	=42	=42
8AA/L	.	8e\L	16gn/LL	16cc#\LL	.	1a	1a	2a\	2cc#\
.	.	.	16g/	16cc#\	.	.	.	.	.
8AA/	.	8e\	16g/	16cc#\	.	.	.	.	.
.	.	.	16g/JJ	16cc#\	.	.	.	.	.
8AA/	.	8e\	16g/LL	16cc#\	.	.	.	.	.
.	.	.	16g/	16cc#\	.	.	.	.	.
8AA/J	.	8e\J	16g/	16cc#\	.	.	.	.	.
.	.	.	16g/JJ	16cc#\JJ	.	.	.	.	.
8AA/L	.	8g\L	16cc#\LL	16ee\LL	.	.	.	2cc#\	2ee\
.	.	.	16cc#\	16ee\	.	.	.	.	.
8AA/	.	8g\	16cc#\	16ee\	.	.	.	.	.
.	.	.	16cc#\JJ	16ee\	.	.	.	.	.
8AA/	.	8g\	16cc#\LL	16ee\	.	.	.	.	.
.	.	.	16cc#\	16ee\	.	.	.	.	.
8AA/J	.	8g\J	16cc#\	16ee\	.	.	.	.	.
.	.	.	16cc#\JJ	16ee\JJ	.	.	.	.	.
=43	=43	=43	=43	=43	=43	=43	=43	=43	=43
*	*	*	*^	*	*	*	*	*	*
8AA/L	.	8g\L	16ee/LL	16cc#\LL	16gg\LL	.	1a	1a	1ee	1ggn
.	.	.	16ee/	16cc#\	16gg\	.	.	.	.	.
8AA/	.	8g\	16ee/	16cc#\	16gg\	.	.	.	.	.
.	.	.	16ee/JJ	16cc#\JJ	16gg\	.	.	.	.	.
8AA/	.	8g\	16ee/LL	16cc#\LL	16gg\	.	.	.	.	.
.	.	.	16ee/	16cc#\	16gg\	.	.	.	.	.
8AA/J	.	8g\J	16ee/	16cc#\	16gg\	.	.	.	.	.
.	.	.	16ee/JJ	16cc#\JJ	16gg\JJ	.	.	.	.	.
8AA/L	.	8g\L	16ee/LL	16cc#\LL	16ccc#\LL	.	.	.	.	.
.	.	.	16ee/	16cc#\	16ccc#\	.	.	.	.	.
8AA/	.	8g\	16ee/	16cc#\	16ccc#\	.	.	.	.	.
.	.	.	16ee/JJ	16cc#\JJ	16ccc#\JJ	.	.	.	.	.
8AA/	.	8g\	16ee/LL	16cc#\LL	16ccc#\LL	.	.	.	.	.
.	.	.	16ee/	16cc#\	16ccc#\	.	.	.	.	.
8AA/J	.	8g\J	16ee/	16cc#\	16ccc#\	.	.	.	.	.
.	.	.	16ee/JJ	16cc#\JJ	16ccc#\JJ	.	.	.	.	.
*	*	*	*v	*v	*	*	*	*	*	*
=44	=44	=44	=44	=44	=44	=44	=44	=44	=44
8D\L	.	8f#\L	16ff#\LL	4ddd\	.	1d	1dd	4dd\	4ff#\
.	.	.	16dd\	.	.	.	.	.	.
8D\	.	8d\	16dd\	.	.	.	.	.	.
.	.	.	16dd\JJ	.	.	.	.	.	.
8cn\	.	8ccn\	16dd\LL	32dd\LLL	.	.	.	4r	4r
.	.	.	.	32ee\JJ	.	.	.	.	.
.	.	.	16dd\	8.ff#\J	.	.	.	.	.
8c\J	.	8cc\J	16dd\	.	.	.	.	.	.
.	.	.	16dd\JJ	.	.	.	.	.	.
8B\L	.	8b\L	16dd\LL	32gg\LLL	.	.	.	2r	2r
.	.	.	.	32aa\JJ	.	.	.	.	.
.	.	.	16dd\	8.bb\J	.	.	.	.	.
8B\	.	8b\	16dd\	.	.	.	.	.	.
.	.	.	16dd\JJ	.	.	.	.	.	.
8G\	.	8g\	16dd\LL	32bb\LLL	.	.	.	.	.
!	!	!	!LO:LB:g=original	!	!	!	!	!	!
.	.	.	.	32aa\JJ	.	.	.	.	.
.	.	.	16dd\	8.gg\J	.	.	.	.	.
8G\J	.	8g\J	16dd\	.	.	.	.	.	.
.	.	.	16dd\JJ	.	.	.	.	.	.
!	!	!LO:LB:g=original	!	!	!	!	!	!	!
!LO:LB:g=original	!	!	!	!	!	!	!	!	!
=45	=45	=45	=45	=45	=45	=45	=45	=45	=45
!	!	!	!	!	!	!	!	!LO:TX:a:t=1	!
*	*	*	*	*	*	*2\right	*2\right	*	*
8F#\L	.	8f#\L	16dd\LL	4ddd\	.	2d/	2dd\	1r	1r
.	.	.	16dd\	.	.	.	.	.	.
8F#\	.	8d\	16dd\	.	.	.	.	.	.
.	.	.	16dd\JJ	.	.	.	.	.	.
8cn\	.	8ccn\	16dd\LL	32dd\LLL	.	.	.	.	.
.	.	.	.	32ee\JJ	.	.	.	.	.
.	.	.	16dd\	8.ff#\J	.	.	.	.	.
8c\J	.	8cc\J	16dd\	.	.	.	.	.	.
.	.	.	16dd\JJ	.	.	.	.	.	.
8B\L	.	8b\L	16dd\LL	32gg\LLL	.	4d/	4dd\	.	.
.	.	.	.	32aa\JJ	.	.	.	.	.
.	.	.	16dd\	8.bb\J	.	.	.	.	.
8B\	.	8b\	16dd\	.	.	.	.	.	.
.	.	.	16dd\JJ	.	.	.	.	.	.
8G\	.	8g\	16dd\LL	32bb\LLL	.	4r	4r	.	.
.	.	.	.	32aa\JJ	.	.	.	.	.
.	.	.	16dd\	8.gg\J	.	.	.	.	.
8G\J	.	8g\J	16dd\	.	.	.	.	.	.
.	.	.	16dd\JJ	.	.	.	.	.	.
!	!	!	!	!LO:LB:g=original	!	!	!	!	!
=46	=46	=46	=46	=46	=46	=46	=46	=46	=46
*	*	*	*^	*	*	*	*	*	*
8D\L	.	8B\L	4bb/	4b\	16b\LL	.	1r	1r	2dd#X\	2ff#\
.	.	.	.	.	16bb\	.	.	.	.	.
8BB\	.	8B\	.	.	16b\	.	.	.	.	.
.	.	.	.	.	16bb\JJ	.	.	.	.	.
8B\	.	8b\	32b\LLL	2.ryy	16b\LL	.	.	.	.	.
.	.	.	32cc#\JJ	.	.	.	.	.	.	.
.	.	.	8.dd#X\J	.	16bb\	.	.	.	.	.
8B\J	.	8b\J	.	.	16b\	.	.	.	.	.
.	.	.	.	.	16bb\JJ	.	.	.	.	.
8G\L	.	8g\L	32ee\LLL	.	16b\LL	.	.	.	2ee\	2gg\
.	.	.	32ff#\JJ	.	.	.	.	.	.	.
.	.	.	8.gg\J	.	16bb\	.	.	.	.	.
8G\	.	8g\	.	.	16b\	.	.	.	.	.
.	.	.	.	.	16bb\JJ	.	.	.	.	.
8E\	.	8e\	32gg\LLL	.	16b\LL	.	.	.	.	.
.	.	.	32ff#\JJ	.	.	.	.	.	.	.
.	.	.	8.ee\J	.	16bb\	.	.	.	.	.
8E\J	.	8e\J	.	.	16b\	.	.	.	.	.
.	.	.	.	.	16bb\JJ	.	.	.	.	.
*	*	*	*v	*v	*	*	*	*	*	*
=47	=47	=47	=47	=47	=47	=47	=47	=47	=47
!LO:TX:a:t=P:problem=mixedbeam	!	!	!	!	!	!	!	!	!
8BB\L	.	8B\L	4b\ 4bb	16b\LL	.	1r	1r	2dd#X\	2ff#\
.	.	.	.	16bb\	.	.	.	.	.
8BB\	.	8B\	.	16b\	.	.	.	.	.
.	.	.	.	16bb\JJ	.	.	.	.	.
8B\	.	8b\	32b\LLL	16b\LL	.	.	.	.	.
.	.	.	32cc#\JJ	.	.	.	.	.	.
.	.	.	8.dd#X\J	16bb\	.	.	.	.	.
8B\J	.	8b\J	.	16b\	.	.	.	.	.
.	.	.	.	16bb\JJ	.	.	.	.	.
8G\L	.	8g\L	32ee\LLL	16b\LL	.	.	.	4ee\	4gg\
.	.	.	32ff#\JJ	.	.	.	.	.	.
.	.	.	8.gg\J	16bb\	.	.	.	.	.
8G\	.	8g\	.	16b\	.	.	.	.	.
.	.	.	.	16bb\JJ	.	.	.	.	.
8E\	.	8e\	32gg\LLL	16b\LL	.	.	.	4r	4r
.	.	.	32ff#\JJ	.	.	.	.	.	.
.	.	.	8.ee\J	16bb\	.	.	.	.	.
8E\J	.	8e\J	.	16b\	.	.	.	.	.
.	.	.	.	16bb\JJ	.	.	.	.	.
=48	=48	=48	=48	=48	=48	=48	=48	=48	=48
!LO:TX:a:t=P:problem=mixedbeam	!	!LO:TX:a:t=P:problem=mixedbeam	!	!	!	!	!	!	!
8AA\L	.	8A\L	16a\LL	4a/ 4aa	.	1a	2aa\	2cc#\	2ee\
.	.	.	16aa\	.	.	.	.	.	.
8AA\	.	8A\	16a\	.	.	.	.	.	.
.	.	.	16aa\JJ	.	.	.	.	.	.
8A\	.	8a\	16a\LL	32cc#\LLL	.	.	.	.	.
.	.	.	.	32dd\JJ	.	.	.	.	.
.	.	.	16aa\	8.ee\J	.	.	.	.	.
8A\J	.	8a\J	16a\	.	.	.	.	.	.
.	.	.	16aa\JJ	.	.	.	.	.	.
8F#\L	.	8f#\L	16a\LL	32dd\LLL	.	.	2aa\	2ddn\	2ff#\
.	.	.	.	32ee\JJ	.	.	.	.	.
.	.	.	16aa\	8.ff#\J	.	.	.	.	.
8F#\	.	8f#\	16a\	.	.	.	.	.	.
.	.	.	16aa\JJ	.	.	.	.	.	.
8D\	.	8d\	16a\LL	32ff#\LLL	.	.	.	.	.
.	.	.	.	32ee\JJ	.	.	.	.	.
.	.	.	16aa\	8.dd\J	.	.	.	.	.
8D\J	.	8d\J	16a\	.	.	.	.	.	.
.	.	.	16aa\JJ	.	.	.	.	.	.
=49	=49	=49	=49	=49	=49	=49	=49	=49	=49
!LO:TX:a:t=P:problem=mixedbeam	!	!LO:TX:a:t=P:problem=mixedbeam	!	!	!	!	!	!	!
8AA\L	.	8A\L	16a\LL	4a/ 4cc# 4aa	.	2a/	2aa\	2cc#\	2ee\
.	.	.	16aa\	.	.	.	.	.	.
8AA\	.	8A\	16a\	.	.	.	.	.	.
.	.	.	16aa\JJ	.	.	.	.	.	.
8A\	.	8a\	16a\LL	32cc#\LLL	.	.	.	.	.
.	.	.	.	32dd\JJ	.	.	.	.	.
.	.	.	16aa\	8.ee\J	.	.	.	.	.
8A\J	.	8a\J	16a\	.	.	.	.	.	.
.	.	.	16aa\JJ	.	.	.	.	.	.
8F#\L	.	8f#\L	16a\LL	32dd\LLL	.	4a/	4aa\	4dd\	4ff#\
.	.	.	.	32ee\JJ	.	.	.	.	.
.	.	.	16aa\	8.ff#\J	.	.	.	.	.
8F#\	.	8f#\	16a\	.	.	.	.	.	.
.	.	.	16aa\JJ	.	.	.	.	.	.
8D\	.	8d\	16a\LL	32ff#\LLL	.	4r	4r	4r	4r
.	.	.	.	32ee\JJ	.	.	.	.	.
.	.	.	16aa\	8.dd\J	.	.	.	.	.
8D\J	.	8d\J	16a\	.	.	.	.	.	.
.	.	.	16aa\JJ	.	.	.	.	.	.
=50	=50	=50	=50	=50	=50	=50	=50	=50	=50
4G\	.	4g\	16bb\LL	16bb\LL	.	1r	1r	1r	1r
.	.	.	16aa\	16aa\	.	.	.	.	.
.	.	.	16gg\	16gg\	.	.	.	.	.
.	.	.	16ff#\JJ	16ff#\JJ	.	.	.	.	.
4r	.	4r	16ee\LL	16ee\LL	.	.	.	.	.
.	.	.	16ff#\	16ff#\	.	.	.	.	.
.	.	.	16gg\	16gg\	.	.	.	.	.
.	.	.	16aa\JJ	16aa\JJ	.	.	.	.	.
!	!	!	!LO:LB:g=original	!	!	!	!	!	!
4G\	.	4g\	16bb\LL	16bb\LL	.	.	.	.	.
.	.	.	16aa\	16aa\	.	.	.	.	.
.	.	.	16gg\	16gg\	.	.	.	.	.
.	.	.	16ff#\JJ	16ff#\JJ	.	.	.	.	.
!	!	!	!	!LO:LB:g=original	!	!	!	!	!
4r	.	4r	16ee\LL	16ee\LL	.	.	.	.	.
.	.	.	16ff#\	16ff#\	.	.	.	.	.
.	.	.	16gg\	16gg\	.	.	.	.	.
.	.	.	16aa\JJ	16aa\JJ	.	.	.	.	.
=51	=51	=51	=51	=51	=51	=51	=51	=51	=51
4G\	.	4g\	16bb\LL	16bb\LL	.	1r	1r	1r	1r
.	.	.	16aa\	16aa\	.	.	.	.	.
.	.	.	16gg\	16gg\	.	.	.	.	.
.	.	.	16ff#\JJ	16ff#\JJ	.	.	.	.	.
4r	.	4r	16ee\LL	16ee\LL	.	.	.	.	.
.	.	.	16ff#\	16ff#\	.	.	.	.	.
.	.	.	16gg\	16gg\	.	.	.	.	.
.	.	.	16aa\JJ	16aa\JJ	.	.	.	.	.
4G\	.	4g\	16bb\LL	16bb\LL	.	.	.	.	.
.	.	.	16aa\	16aa\	.	.	.	.	.
.	.	.	16gg\	16gg\	.	.	.	.	.
.	.	.	16ff#\JJ	16ff#\JJ	.	.	.	.	.
4G#X\	.	4g#X\	16ee\LL	16ee\LL	.	.	.	.	.
.	.	.	16dd\	16dd\	.	.	.	.	.
.	.	.	16cc#\	16cc#\	.	.	.	.	.
.	.	.	16b\JJ	16b\JJ	.	.	.	.	.
=52	=52	=52	=52	=52	=52	=52	=52	=52	=52
!	!LO:DY:a	!	!	!	!	!	!	!	!
8A\L	p	8a\L	4a/	4a/	.	4a/	4a/	4a/	4a/
8A\	.	8a\	.	.	.	.	.	.	.
8A\	.	8a\	4r	4r	.	4r	4r	4r	4r
8A\J	.	8a\J	.	.	.	.	.	.	.
8A\L	.	8a\L	4r	4r	.	2r	2r	2r	2r
8A\	.	8a\	.	.	.	.	.	.	.
8A\	.	8a\	8ff#\	8aa\	.	.	.	.	.
8A\J	.	8a\J	8r	8r	.	.	.	.	.
=53	=53	=53	=53	=53	=53	=53	=53	=53	=53
8A\L	.	8a\L	4dd#X\	(4ff#\	.	1r	1r	1r	1r
8A\	.	8a\	.	.	.	.	.	.	.
8A\	.	8a\	4ee\	4gg\)	.	.	.	.	.
8A\J	.	8a\J	.	.	.	.	.	.	.
8A\L	.	8a\L	4r	4r	.	.	.	.	.
8A\	.	8a\	.	.	.	.	.	.	.
8A\	.	8a\	8ee\	8gg\	.	.	.	.	.
8A\J	.	8a\J	8r	8r	.	.	.	.	.
!LO:LB:g=original	!	!	!	!	!	!	!	!	!
=54	=54	=54	=54	=54	=54	=54	=54	=54	=54
8A\L	.	8a\L	4cc#\	4ee\	.	1r	1r	1r	1r
8A\	.	8a\	.	.	.	.	.	.	.
8A\	.	8a\	4ddn\	4ff#\	.	.	.	.	.
8A\J	.	8a\J	.	.	.	.	.	.	.
8A\L	.	8a\L	4r	4r	.	.	.	.	.
8A\	.	8a\	.	.	.	.	.	.	.
8A\	.	8a\	8a/	8ff#\	.	.	.	.	.
8A\J	.	8a\J	8r	8r	.	.	.	.	.
!	!	!LO:LB:g=original	!	!	!	!	!	!	!
=55	=55	=55	=55	=55	=55	=55	=55	=55	=55
8A\L	.	8a\L	8g/	8ee\	.	1r	1r	1r	1r
8A\	.	8a\	8r	8r	.	.	.	.	.
8A\	.	8a\	8f#/	8dd\	.	.	.	.	.
8A\J	.	8a\J	8r	8r	.	.	.	.	.
8A\L	.	8a\L	8e/	8cc#\	.	.	.	.	.
8A\	.	8a\	8r	8r	.	.	.	.	.
8A\	.	8a\	8f#/	8dd\	.	.	.	.	.
8A\J	.	8a\J	8r	8r	.	.	.	.	.
=56	=56	=56	=56	=56	=56	=56	=56	=56	=56
!	!	!	!	!	!LO:DY:a	!	!	!	!
8A\L	.	8a\L	32e/LLL	32cc#\LLL	f	1a	1a	2r	2r
.	.	.	32d/JJ	32b\JJ	.	.	.	.	.
.	.	.	8.c#/J	8.a\J	.	.	.	.	.
8A\	.	8a\	.	.	.	.	.	.	.
8A\	.	8a\	8c#/	8a/	.	.	.	.	.
8A\J	.	8a\J	8r	8r	.	.	.	.	.
8A\L	.	8a\L	4r	4r	.	.	.	4r	4r
8A\	.	8a\	.	.	.	.	.	.	.
!	!	!	!	!	!LO:DY:a	!	!	!LO:TX:a:t=Solo	!
8A\	.	8a\	8f#/	8a/	p	.	.	4ff#\	4aa\
8A\J	.	8a\J	8ryy	8r	.	.	.	.	.
!	!	!	!	!	!	!	!	!	!LO:LB:g=original
!	!	!	!LO:LB:g=original	!	!	!	!	!	!
=57	=57	=57	=57	=57	=57	=57	=57	=57	=57
8A\L	.	8a\L	4d#X/	4a/	.	1a	1a	4dd#X\	4ff#\
8A\	.	8a\	.	.	.	.	.	.	.
8A\	.	8a\	4e/	4b/	.	.	.	4ee\	4gg\
8A\J	.	8a\J	.	.	.	.	.	.	.
8A\L	.	8a\L	4r	4r	.	.	.	4r	4r
8A\	.	8a\	.	.	.	.	.	.	.
8A\	.	8a\	8e/	8r	.	.	.	4ee\	4gg\
8A\J	.	8a\J	8r	8g/	.	.	.	.	.
!	!	!	!	!LO:LB:g=original	!	!	!	!	!
=58	=58	=58	=58	=58	=58	=58	=58	=58	=58
8A\L	.	8a\L	4c#/	4e/	.	1a	1a	4cc#\	4ee\
8A\	.	8a\	.	.	.	.	.	.	.
8A\	.	8a\	4d/	4f#/	.	.	.	4ddn\	4ff#\
8A\J	.	8a\J	.	.	.	.	.	.	.
8A\L	.	8a\L	4r	4r	.	.	.	4r	4r
8A\	.	8a\	.	.	.	.	.	.	.
8A\	.	8a\	8f#/	8a/	.	.	.	8ff#\	8aa\
8A\J	.	8a\J	8r	8r	.	.	.	8r	8r
!	!	!	!	!	!	!	!	!LO:LB:g=original	!
!	!	!	!	!	!	!	!LO:LB:g=original	!	!
=59	=59	=59	=59	=59	=59	=59	=59	=59	=59
8A\L	.	8a\L	8e/	8g/	.	1a	1a	8ee\	8gg\
8A\	.	8a\	8r	8r	.	.	.	8r	8r
8A\	.	8a\	8d/	8f#/	.	.	.	8dd\	8ff#\
8A\J	.	8a\J	8r	8r	.	.	.	8r	8r
8A\L	.	8a\L	8c#/	8e/	.	.	.	8cc#\	8ee\
8A\	.	8a\	8r	8r	.	.	.	8r	8r
8A\	.	8a\	8d/	8f#/	.	.	.	8dd\	8ff#\
8A\J	.	8a\J	8r	8r	.	.	.	8r	8r
=60	=60	=60	=60	=60	=60	=60	=60	=60	=60
8G\	.	8A/L	8c#/	8e/	.	4a/	8a/	8cc#\	8ee\
8r	.	8A/	8r	8r	.	.	8r	8r	8r
4r	.	8A/	4r	4r	.	4r	4r	4r	4r
.	.	8A/J	.	.	.	.	.	.	.
2r	.	8A/L	8ee\	8gg\	.	2r	2r	2r	2r
.	.	8A/	8r	8r	.	.	.	.	.
.	.	8A/	4r	4r	.	.	.	.	.
.	.	8A/J	.	.	.	.	.	.	.
=61	=61	=61	=61	=61	=61	=61	=61	=61	=61
8AA/	.	8A/L	8cc#\	8ee\	.	1r	1r	1r	1r
8r	.	8A/	8r	8r	.	.	.	.	.
4r	.	8A/	4r	4r	.	.	.	.	.
.	.	8A/J	.	.	.	.	.	.	.
2r	.	8A/L	8g/	8cc#\	.	.	.	.	.
.	.	8A/	8r	8r	.	.	.	.	.
.	.	8A/	4r	4r	.	.	.	.	.
.	.	8A/J	.	.	.	.	.	.	.
=62	=62	=62	=62	=62	=62	=62	=62	=62	=62
8AA/	.	8A/L	8e/	8g/	.	1r	1r	1r	1r
8r	.	8A/	8r	8r	.	.	.	.	.
4r	.	8A/	4r	4r	.	.	.	.	.
.	.	8A/J	.	.	.	.	.	.	.
2r	.	8A/L	8c#/	8e/	.	.	.	.	.
.	.	8A/	8r	8r	.	.	.	.	.
.	.	8A/	4r	4r	.	.	.	.	.
.	.	8A/J	.	.	.	.	.	.	.
!	!	!	!	!	!	!LO:LB:g=original	!	!	!
=63	=63	=63	=63	=63	=63	=63	=63	=63	=63
4D\	.	4d\	4d/	4d/	.	4d/	4d/	4d/	4d/
4F#\	.	4f#\	4f#/	4f#/	.	4f#/	4f#/	4f#/	4f#/
4A\	.	4a\	4a/	4a/	.	4a/	4a/	4a/	4a/
4r	.	4r	8r	8r	.	4r	4r	4r	4r
.	.	.	16r	16r	.	.	.	.	.
.	.	.	48a\LLL	48a\LLL	.	.	.	.	.
.	.	.	48b\	48b\	.	.	.	.	.
.	.	.	48cc#\JJJ	48cc#\JJJ	.	.	.	.	.
!	!	!	!LO:LB:g=original	!	!	!	!	!	!
!LO:LB:g=original	!	!	!	!	!	!	!	!	!
=64	=64	=64	=64	=64	=64	=64	=64	=64	=64
4D\	.	4d\	4dd\	4dd\	.	4d/	4dd\	4dd\	4dd\
4F#\	.	4f#\	4ff#\	4ff#\	.	4f#/	4ff#\	4ff#\	4ff#\
4A\	.	4a\	4aa\	4aa\	.	4a/	4aa\	4aa\	4aa\
4r	.	4r	8r	8r	.	4r	4r	4r	4r
.	.	.	16r	16r	.	.	.	.	.
.	.	.	48aa\LLL	48aa\LLL	.	.	.	.	.
.	.	.	48bb\	48bb\	.	.	.	.	.
.	.	.	48ccc#\JJJ	48ccc#\JJJ	.	.	.	.	.
=65	=65	=65	=65	=65	=65	=65	=65	=65	=65
4D\	.	4d\	16ddd\LL	4ddd\	.	4d/	4dd\	4ff#\	4aa\
.	.	.	16dd\	.	.	.	.	.	.
.	.	.	16dd\	.	.	.	.	.	.
.	.	.	16dd\JJ	.	.	.	.	.	.
4r	.	4r	16dd\LL	4r	.	4r	4r	4r	4r
.	.	.	16dd\	.	.	.	.	.	.
.	.	.	16dd\	.	.	.	.	.	.
.	.	.	16dd\JJ	.	.	.	.	.	.
4D\	.	4d\	16dd\LL	4ddd\	.	4d/	4dd\	4ff#\	4aa\
.	.	.	16dd\	.	.	.	.	.	.
.	.	.	16dd\	.	.	.	.	.	.
.	.	.	16dd\JJ	.	.	.	.	.	.
.	.	.	.	8qqccc#/	.	.	.	.	.
4G\	.	4g\	16dd\LL	16bb\LL	.	4d/	4dd\	4gg\	4bb\
.	.	.	16dd\	16aa\J	.	.	.	.	.
.	.	.	16dd\	8bb\J	.	.	.	.	.
.	.	.	16dd\JJ	.	.	.	.	.	.
!	!	!	!	!LO:LB:g=original	!	!	!	!	!
=66	=66	=66	=66	=66	=66	=66	=66	=66	=66
4D\	.	4d\	16dd\LL	4aa\	.	4d/	4dd\	4ff#\	4aa\
.	.	.	16dd\	.	.	.	.	.	.
.	.	.	16dd\	.	.	.	.	.	.
.	.	.	16dd\JJ	.	.	.	.	.	.
4r	.	4r	16dd\LL	4r	.	4r	4r	4r	4r
.	.	.	16dd\	.	.	.	.	.	.
.	.	.	16dd\	.	.	.	.	.	.
.	.	.	16dd\JJ	.	.	.	.	.	.
4D\	.	4d\	16dd\LL	4ccc#\	.	4d/	4dd\	4ff#\	4aa\
.	.	.	16dd\	.	.	.	.	.	.
.	.	.	16dd\	.	.	.	.	.	.
.	.	.	16dd\JJ	.	.	.	.	.	.
.	.	.	.	8qqaa/	.	.	.	.	.
4G\	.	4g\	16dd\LL	8bb\L	.	4d/	4dd\	4gg\	4bb\
.	.	.	16dd\	.	.	.	.	.	.
.	.	.	16dd\	16aa\L	.	.	.	.	.
.	.	.	16dd\JJ	16bb\JJ	.	.	.	.	.
=67	=67	=67	=67	=67	=67	=67	=67	=67	=67
4D\	.	4d\	16dd\LL	4aa\	.	4d/	4dd\	4ff#\	4aa\
.	.	.	16dd\	.	.	.	.	.	.
.	.	.	16dd\	.	.	.	.	.	.
.	.	.	16dd\JJ	.	.	.	.	.	.
4r	.	4r	16dd\LL	4r	.	4r	4r	4r	4r
.	.	.	16dd\	.	.	.	.	.	.
.	.	.	16dd\	.	.	.	.	.	.
.	.	.	16dd\JJ	.	.	.	.	.	.
4D\	.	4d\	16dd\LL	4ddd\	.	4d/	4dd\	4ff#\	4aa\
.	.	.	16dd\	.	.	.	.	.	.
.	.	.	16dd\	.	.	.	.	.	.
.	.	.	16dd\JJ	.	.	.	.	.	.
.	.	.	.	16qqaa/	.	.	.	.	.
4G\	.	4g\	16dd\LL	8bb\L	.	4d/	4dd\	4gg\	4bb\
.	.	.	16dd\	.	.	.	.	.	.
.	.	.	16dd\	16aa\L	.	.	.	.	.
.	.	.	16dd\JJ	16bb\JJ	.	.	.	.	.
!	!	!	!	!	!	!	!	!	!LO:LB:g=original
!	!	!LO:LB:g=original	!	!	!	!	!	!	!
=68	=68	=68	=68	=68	=68	=68	=68	=68	=68
4D\	.	4d\	16dd\LL	4aa\	.	4d/	4dd\	4ff#\	4aa\
.	.	.	16dd\	.	.	.	.	.	.
.	.	.	16dd\	.	.	.	.	.	.
.	.	.	16dd\JJ	.	.	.	.	.	.
.	.	.	.	4qqgg/	.	.	.	.	.
4G\	.	4g\	16ee\LL	8gg\L	.	4ee\	4gg\	4ee\	4gg\
.	.	.	16ee\	.	.	.	.	.	.
.	.	.	16ee\	16ff#\L	.	.	.	.	.
.	.	.	16ee\JJ	16gg\JJ	.	.	.	.	.
4A\	.	4a\	16dd\LL	4ff#\	.	4dd\	4ff#\	4dd\	4ff#\
.	.	.	16dd\	.	.	.	.	.	.
.	.	.	16dd\	.	.	.	.	.	.
.	.	.	16dd\JJ	.	.	.	.	.	.
.	.	.	.	8qqff#/	.	.	.	.	.
4AA/	.	4A/	16cc#\LL	8ee\L	.	4f#/	4ee\	4cc#\	4ee\
.	.	.	16cc#\	.	.	.	.	.	.
.	.	.	16cc#\	16dd\L	.	.	.	.	.
.	.	.	16cc#\JJ	16ee\JJ	.	.	.	.	.
=69	=69	=69	=69	=69	=69	=69	=69	=69	=69
!	!	!	!LO:TX:a:t=P:problem=mixedbeam	!	!	!	!	!	!
4D\	.	4d\	16dd/LL	4dd\	.	4f#/	4dd\	4dd\	4dd\
.	.	.	16d/	.	.	.	.	.	.
.	.	.	16d/	.	.	.	.	.	.
.	.	.	16d/JJ	.	.	.	.	.	.
4r	.	4r	16d/LL	4r	.	4r	4r	4r	4r
.	.	.	16d/	.	.	.	.	.	.
.	.	.	16d/	.	.	.	.	.	.
.	.	.	16d/JJ	.	.	.	.	.	.
!	!	!	!	!	!LO:DY:a	!	!	!	!
!	!	!	!	!	!LO:DY:t=fo.	!	!	!	!
4D\	.	4d\	16d/LL	4d/ 4dd	f	2r	2r	2r	2r
.	.	.	16d/	.	.	.	.	.	.
.	.	.	16d/	.	.	.	.	.	.
.	.	.	16d/JJ	.	.	.	.	.	.
.	.	.	.	16qqcc#/	.	.	.	.	.
4G\	.	4g\	16d/LL	8b/L	.	.	.	.	.
.	.	.	16d/	.	.	.	.	.	.
.	.	.	16d/	16a/L	.	.	.	.	.
.	.	.	16d/JJ	16b/JJ	.	.	.	.	.
=70	=70	=70	=70	=70	=70	=70	=70	=70	=70
!	!	!	!	!	!	!	!LO:TX:a:t=1	!	!
4D\	.	4d\	16d/LL	4a/	.	1r	1r	1r	1r
.	.	.	16d/	.	.	.	.	.	.
.	.	.	16d/	.	.	.	.	.	.
.	.	.	16d/JJ	.	.	.	.	.	.
4r	.	4r	16d/LL	4r	.	.	.	.	.
.	.	.	16d/	.	.	.	.	.	.
.	.	.	16d/	.	.	.	.	.	.
.	.	.	16d/JJ	.	.	.	.	.	.
4D\	.	4d\	16d/LL	4d/ 4dd	.	.	.	.	.
.	.	.	16d/	.	.	.	.	.	.
.	.	.	16d/	.	.	.	.	.	.
.	.	.	16d/JJ	.	.	.	.	.	.
.	.	.	.	8qqcc#/	.	.	.	.	.
4G\	.	4g\	16d/LL	8b/L	.	.	.	.	.
.	.	.	16d/	.	.	.	.	.	.
.	.	.	16d/	16a/L	.	.	.	.	.
.	.	.	16d/JJ	16b/JJ	.	.	.	.	.
=71	=71	=71	=71	=71	=71	=71	=71	=71	=71
!	!	!	!LO:TX:a:t=P:problem=mixedbeam	!	!	!	!	!	!
4D\	.	4d\	16d/LL	4a/	.	2r	2r	2r	2r
.	.	.	16dd/	.	.	.	.	.	.
.	.	.	16dd/	.	.	.	.	.	.
.	.	.	16dd/JJ	.	.	.	.	.	.
4r	.	4r	16dd\LL	4r	.	.	.	.	.
.	.	.	16dd\	.	.	.	.	.	.
.	.	.	16dd\	.	.	.	.	.	.
.	.	.	16dd\JJ	.	.	.	.	.	.
4D\	.	4d\	16dd\LL	4ddd\	.	4d/	4dd\	4ff#\	4gg\
.	.	.	16dd\	.	.	.	.	.	.
.	.	.	16dd\	.	.	.	.	.	.
.	.	.	16dd\JJ	.	.	.	.	.	.
.	.	.	.	8qqccc#/	.	.	.	.	.
4G\	.	4g\	16dd\LL	8bb\L	.	4d/	4dd\	4gg\	4bb\
.	.	.	16dd\	.	.	.	.	.	.
.	.	.	16dd\	16aa\L	.	.	.	.	.
.	.	.	16dd\JJ	16bb\JJ	.	.	.	.	.
!	!	!	!	!	!	!	!	!LO:LB:g=original	!
!	!	!	!	!	!	!	!LO:LB:g=original	!	!
!	!	!	!LO:LB:g=original	!	!	!	!	!	!
=72	=72	=72	=72	=72	=72	=72	=72	=72	=72
4D\	.	4d\	16dd\LL	4aa\	.	4d/	4dd\	4ff#\	4aa\
.	.	.	16dd\	.	.	.	.	.	.
.	.	.	16dd\	.	.	.	.	.	.
.	.	.	16dd\JJ	.	.	.	.	.	.
.	.	.	.	8qqgg/	.	.	.	.	.
4G\	.	4g\	16ee\LL	8gg\L	.	4ee\	4gg\	4ee\	4gg\
.	.	.	16ee\	.	.	.	.	.	.
.	.	.	16ee\	16ff#\L	.	.	.	.	.
.	.	.	16ee\JJ	16gg\JJ	.	.	.	.	.
4A\	.	4a\	16dd\LL	4ff#\	.	4dd\	4ff#\	4dd\	4ff#\
.	.	.	16dd\	.	.	.	.	.	.
.	.	.	16dd\	.	.	.	.	.	.
.	.	.	16dd\JJ	.	.	.	.	.	.
.	.	.	.	8qqff#/	.	.	.	.	.
4AA/	.	4A/	16cc#\LL	8ee\L	.	4a/	4ee\	4cc#\	4ee\
.	.	.	16cc#\	.	.	.	.	.	.
.	.	.	16cc#\	16dd\L	.	.	.	.	.
.	.	.	16cc#\JJ	16ee\JJ	.	.	.	.	.
=73	=73	=73	=73	=73	=73	=73	=73	=73	=73
8D\L	.	8d\L	4dd\	4dd\	.	4f#/	4dd\	4dd\	4dd\
8D\	.	8d\	.	.	.	.	.	.	.
8D\	.	8d\	8d/L 8a 8ff#	8d/L 8cc# 8ff#	.	4r	4r	4r	4r
8D\J	.	8d\J	8aa/J	8aa/J	.	.	.	.	.
8D\L	.	8d\L	4d/ 4a 4ff#	4d/ 4cc# 4ff#	.	2r	2r	2r	2r
8D\	.	8d\	.	.	.	.	.	.	.
8D\	.	8d\	8d/L 8a 8ff#	8d/L 8a 8ff#	.	.	.	.	.
8D\J	.	8d\J	8aa/J	8aa/J	.	.	.	.	.
!	!	!	!	!	!	!	!LO:LB:g=original	!	!
!	!	!	!	!LO:LB:g=original	!	!	!	!	!
!LO:LB:g=original	!	!	!	!	!	!	!	!	!
=74	=74	=74	=74	=74	=74	=74	=74	=74	=74
8D\L	.	8d\L	4d/ 4a 4ff#	32dd\LLL	.	1d	1dd	1ff#	2aa\
.	.	.	.	32ee\JJ	.	.	.	.	.
.	.	.	.	8.ff#\J	.	.	.	.	.
8D\	.	8d\	.	.	.	.	.	.	.
8D\	.	8d\	32dd\LLL	32ff#\LLL	.	.	.	.	.
.	.	.	32ee\JJ	32gg\JJ	.	.	.	.	.
.	.	.	8.ff#\J	8.aa\J	.	.	.	.	.
8D\J	.	8d\J	.	.	.	.	.	.	.
!	!	!	!	!LO:N:vis=32	!	!	!	!	!
8D\L	.	8d\L	32dd\LLL	8aa\LL	.	.	.	.	2aa\
.	.	.	32ee\JJ	.	.	.	.	.	.
.	.	.	8.ff#\J	.	.	.	.	.	.
!	!	!	!	!LO:N:vis=32	!	!	!	!	!
8D\	.	8d\	.	8bb\J	.	.	.	.	.
!	!	!	!	!LO:N:vis=8	!	!	!	!	!
8D\	.	8d\	32ff#\LLL	4cccn\J	.	.	.	.	.
.	.	.	32gg\JJ	.	.	.	.	.	.
.	.	.	8.aa\J	.	.	.	.	.	.
8D\J	.	8d\J	.	.	.	.	.	.	.
=75	=75	=75	=75	=75	=75	=75	=75	=75	=75
8G\L	.	8g\L	4E/ 4d 4b 4gg	4bb\	.	4d/	4dd\	4gg\	4bb\
8G\	.	8g\	.	.	.	.	.	.	.
8G\	.	8g\	8d/L 8b 8gg	8g/L 8dd 8bb	.	4r	4r	4r	4r
8G\J	.	8g\J	8bb/J	8bb/J	.	.	.	.	.
!	!	!	!	!LO:N:vis=8	!	!	!	!	!
8G\L	.	8g\L	4d/ 4b 4gg	4g/ 4dd 4bb	.	2r	2r	2r	2r
8G\	.	8g\	.	.	.	.	.	.	.
8G\	.	8g\	8d/L 8b 8gg	8g/L 8dd 8bb	.	.	.	.	.
8G\J	.	8g\J	8bb/J	8bb/J	.	.	.	.	.
=76	=76	=76	=76	=76	=76	=76	=76	=76	=76
8G\L	.	8g\L	4d/ 4b 4gg	4g/ 4dd 4bb	.	1r	1r	4gg\	4bb\
8G\	.	8g\	.	.	.	.	.	.	.
8G\	.	8g\	32gg\LLL	32bb\LLL	.	.	.	4bb\	4ddd\
.	.	.	32aa\JJ	32ccc#X\JJ	.	.	.	.	.
.	.	.	8.bb\J	8.ddd\J	.	.	.	.	.
8G\J	.	8g\J	.	.	.	.	.	.	.
8G\L	.	8g\L	32bb\LLL	32ddd\LLL	.	.	.	4gg\	4bb\
.	.	.	32aa\JJ	32ccc#\JJ	.	.	.	.	.
.	.	.	8.gg\J	8.bb\J	.	.	.	.	.
8G\	.	8g\	.	.	.	.	.	.	.
8G\	.	8g\	32gg\LLL	32bb\LLL	.	.	.	4ee\	4gg\
.	.	.	32ff#\JJ	32aa\JJ	.	.	.	.	.
.	.	.	8.ee\J	8.gg\J	.	.	.	.	.
8G\J	.	8g\J	.	.	.	.	.	.	.
!	!	!	!	!LO:LB:g=original	!	!	!	!	!
=77	=77	=77	=77	=77	=77	=77	=77	=77	=77
8A\L	.	8a\L	16dd\LL	16ff#\LL	.	4a/	4a/	2dd\	2ff#\
.	.	.	16dd\	16ff#\	.	.	.	.	.
8A\	.	8a\	16dd\	16ff#\	.	.	.	.	.
.	.	.	16dd\JJ	16ff#\JJ	.	.	.	.	.
8A\	.	8a\	16dd\LL	16ff#\LL	.	8.a/L	8.a/L	.	.
.	.	.	16dd\	16ff#\	.	.	.	.	.
8A\J	.	8a\J	16dd\	16ff#\	.	.	.	.	.
.	.	.	16dd\JJ	16ff#\JJ	.	16a/Jk	16a/Jk	.	.
8A\L	.	8a\L	16cc#\LL	16ee\LL	.	4a/	4a/	2cc#\	2eeT\
.	.	.	16cc#\	16ee\	.	.	.	.	.
8A\	.	8a\	16cc#\	16ee\	.	.	.	.	.
.	.	.	16cc#\JJ	16ee\JJ	.	.	.	.	.
8A\	.	8a\	16cc#\LL	16ee\LL	.	4a/	4a/	.	.
.	.	.	16cc#\	16ee\	.	.	.	.	.
8A\J	.	8a\J	16cc#\	16ee\	.	.	.	.	.
.	.	.	16cc#\JJ	16ee\JJ	.	.	.	.	.
=78	=78	=78	=78	=78	=78	=78	=78	=78	=78
8D\	.	8d\	8dd\L	8dd\L	.	4d/	4dd\	4dd\	4dd\
8r	.	8r	8aa\	8aa\	.	.	.	.	.
4r	.	4r	8aa\	8aa\	.	4r	4r	4r	4r
.	.	.	8aa\J	8aa\J	.	.	.	.	.
*	*	*	*	*2\right	*	*	*	*	*
2r	.	2r	8aa\L	2aa\	.	4r	4r	2r	2r
.	.	.	8aa\	.	.	.	.	.	.
!	!	!	!	!	!	!	!LO:TX:a:t=Solo	!	!
.	.	.	8aa\	.	.	8ff#\L	8aa\L	.	.
.	.	.	8aa\J	.	.	8ee\J	8gg\J	.	.
=79	=79	=79	=79	=79	=79	=79	=79	=79	=79
1r	.	1r	8aa\L	2aa\	.	4dd\	4ff#\	2r	2r
.	.	.	8aa\	.	.	.	.	.	.
.	.	.	8aa\	.	.	4a/	4ee\	.	.
.	.	.	8aa\J	.	.	.	.	.	.
.	.	.	8aa\L	2aa\	.	4f#/	4dd\	4r	4r
.	.	.	8aa\	.	.	.	.	.	.
!	!	!	!	!	!	!	!	!	!LO:TX:a:t=Solo
.	.	.	8aa\	.	.	4d/	4ff#\	4dd\	4ff#\
.	.	.	8aa\J	.	.	.	.	.	.
=80	=80	=80	=80	=80	=80	=80	=80	=80	=80
8AA/	.	8A/	8aa\L	2aa\	.	4a/	4ee\	4cc#\	4ee\
8r	.	8r	8aa\	.	.	.	.	.	.
4r	.	4r	8aa\	.	.	4r	4r	4dd\	4ff#\
.	.	.	8aa\J	.	.	.	.	.	.
.	.	.	.	.	.	.	.	8qqff#/	8qqaa/
2r	.	2r	8aa\L	2aa\	.	4r	4r	4ee\	4gg\
.	.	.	8aa\	.	.	.	.	.	.
.	.	.	8aa\	.	.	8.a/L	8.ee\L	16dd\KL	16ff#\KL
.	.	.	.	.	.	.	.	8.cc#\J	8.ee\J
.	.	.	8aa\J	.	.	.	.	.	.
.	.	.	.	.	.	16a/Jk	16ee\Jk	.	.
!	!	!	!	!	!	!	!	!	!LO:LB:g=original
=81	=81	=81	=81	=81	=81	=81	=81	=81	=81
1r	.	1r	8aa\L	2aa\	.	4dd\	4ff#\	4dd\	4ff#\
.	.	.	8aa\	.	.	.	.	.	.
.	.	.	8aa\	.	.	4a/	4ee\	4r	4r
.	.	.	8aa\J	.	.	.	.	.	.
.	.	.	8aa\L	2aa\	.	4f#/	4dd\	4r	4r
.	.	.	8aa\	.	.	.	.	.	.
.	.	.	8aa\	.	.	4d/	4ff#\	4dd\	4ff#\
.	.	.	8aa\J	.	.	.	.	.	.
!	!	!LO:LB:g=original	!	!	!	!	!	!	!
=82	=82	=82	=82	=82	=82	=82	=82	=82	=82
8AA/	.	8A/	8aa\L	2aa\	.	4a/	4ee\	4cc#\	4ee\
8r	.	8r	8aa\	.	.	.	.	.	.
4r	.	4r	8aa\	.	.	4r	4r	4dd\	4ff#\
.	.	.	8aa\J	.	.	.	.	.	.
.	.	.	.	.	.	.	.	8qqff#/	8qqaa/
2r	.	2r	8aa\L	2aa\	.	2r	2r	4ee\	4gg\
.	.	.	8aa\	.	.	.	.	.	.
.	.	.	8aa\	.	.	.	.	16dd\KL	16ff#\KL
.	.	.	.	.	.	.	.	.	8qqgg/
.	.	.	.	.	.	.	.	8.cc#\J	8.ee\J
.	.	.	8aa\J	.	.	.	.	.	.
!	!	!	!	!	!	!	!LO:LB:g=original	!	!
!	!	!	!	!LO:LB:g=original	!	!	!	!	!
=83	=83	=83	=83	=83	=83	=83	=83	=83	=83
8D\L	.	8d\L	4d/ 4a 4ff#	4d\ 4a 4ff#	.	4d/	4dd\	4dd\	4ff#\
8D\	.	8d\	.	.	.	.	.	.	.
8D\	.	8d\	8d/L 8a 8ff#	8d/L 8a 8ff#	.	4r	4r	4r	4r
8D\J	.	8d\J	8aa/J	8aa/J	.	.	.	.	.
8D\L	.	8d\L	4d/ 4a 4ff#	4d/ 4a 4ff#	.	2r	2r	2r	2r
8D\	.	8d\	.	.	.	.	.	.	.
8D\	.	8d\	8d/L 8a 8ff#	8d/L 8a 8ff#	.	.	.	.	.
8D\J	.	8d\J	8aa/J	8aa/J	.	.	.	.	.
!	!	!	!	!	!	!	!	!LO:LB:g=original	!
=84	=84	=84	=84	=84	=84	=84	=84	=84	=84
8D\L	.	8d\L	4d/ 4a 4ff#	4d/ 4a 4ff#	.	[1d	1dd	1ff#	1aa
8D\	.	8d\	.	.	.	.	.	.	.
8D\	.	8d\	32dd\LLL	32dd\LLL	.	.	.	.	.
.	.	.	32ee\JJ	32ee\JJ	.	.	.	.	.
.	.	.	8.ff#\J	8.ff#\J	.	.	.	.	.
8D\J	.	8d\J	.	.	.	.	.	.	.
8D\L	.	8d\L	32dd\LLL	32ff#\LLL	.	.	.	.	.
.	.	.	32ee\JJ	32gg\JJ	.	.	.	.	.
.	.	.	8.ff#\J	8.aa\J	.	.	.	.	.
8D\	.	8d\	.	.	.	.	.	.	.
8D\	.	8d\	32ff#\LLL	32aa\LLL	.	.	.	.	.
.	.	.	32gg\JJ	32bb\JJ	.	.	.	.	.
.	.	.	8.aa\J	8.cccn\J	.	.	.	.	.
8D\J	.	8d\J	.	.	.	.	.	.	.
=85	=85	=85	=85	=85	=85	=85	=85	=85	=85
8G\L	.	8g\L	4d/ 4b 4gg	4bb\	.	4d/]	4dd\	4gg\	4bb\
8G\	.	8g\	.	.	.	.	.	.	.
8G\	.	8g\	8d/L 8b 8gg	8g/L 8dd 8bb	.	4r	4r	4r	4r
8G\J	.	8g\J	8bb/J	8ddd/J	.	.	.	.	.
!LO:TX:t=P:problem= źródło częściowo uszkodzone	!	!	!	!	!	!	!	!	!
2G\yy	.	8g\L	4d/ 4b 4gg	4g/ 4dd 4bb	.	2r	2r	2r	2r
.	.	8g\	.	.	.	.	.	.	.
.	.	8g\	8d/L 8b 8gg	8g/L 8dd 8bb	.	.	.	.	.
.	.	8g\J	8bb/J	8ddd/J	.	.	.	.	.
!	!	!	!	!	!	!LO:LB:g=original	!	!	!
!LO:LB:g=original	!	!	!	!	!	!	!	!	!
=86	=86	=86	=86	=86	=86	=86	=86	=86	=86
8G\L	.	8g\L	4d/ 4b 4gg	4g/ 4dd 4bb	.	1r	1r	4gg\	4bb\
8G\	.	8g\	.	.	.	.	.	.	.
8G\	.	8g\	32gg\LLL	32bb\LLL	.	.	.	4bb\	4ddd\
.	.	.	32aa\JJ	32ccc#X\JJ	.	.	.	.	.
.	.	.	8.bb\J	8.ddd\J	.	.	.	.	.
8G\J	.	8g\J	.	.	.	.	.	.	.
8G\L	.	8g\L	32bb\LLL	32ddd\LLL	.	.	.	4gg\	4bb\
.	.	.	32aa\JJ	32ccc#\JJ	.	.	.	.	.
.	.	.	8.gg\J	8.bb\J	.	.	.	.	.
8G\	.	8g\	.	.	.	.	.	.	.
8G\	.	8g\	32gg\LLL	32bb\LLL	.	.	.	4ee\	4gg\
.	.	.	32ff#\JJ	32aa\JJ	.	.	.	.	.
.	.	.	8.ee\J	8.gg\J	.	.	.	.	.
8G\J	.	8g\J	.	.	.	.	.	.	.
=87	=87	=87	=87	=87	=87	=87	=87	=87	=87
8A\L	.	8a\L	16dd\LL	16ff#\LL	.	4a/	4a/	2dd\	2ff#\
.	.	.	16dd\	16ff#\	.	.	.	.	.
8A\	.	8a\	16dd\	16ff#\	.	.	.	.	.
.	.	.	16dd\JJ	16ff#\JJ	.	.	.	.	.
8A\	.	8a\	16dd\LL	16ff#\LL	.	8.a/L	8.a/L	.	.
.	.	.	16dd\	16ff#\	.	.	.	.	.
8A\J	.	8a\J	16dd\	16ff#\	.	.	.	.	.
.	.	.	16dd\JJ	16ff#\JJ	.	16a/Jk	16a/Jk	.	.
8A\L	.	8a\L	16cc#\LL	16ee\LL	.	4a/	4a/	2cc#\	2eeT\
.	.	.	16cc#\	16ee\	.	.	.	.	.
8A\	.	8a\	16cc#\	16ee\	.	.	.	.	.
.	.	.	16cc#\JJ	16ee\JJ	.	.	.	.	.
8A\	.	8a\	16cc#\LL	16ee\LL	.	4a/	4a/	.	.
.	.	.	16cc#\	16ee\	.	.	.	.	.
8A\J	.	8a\J	16cc#\	16ee\	.	.	.	.	.
.	.	.	16cc#\JJ	16ee\JJ	.	.	.	.	.
*	*	*	*	*Xtremolo	*	*	*	*	*
*	*	*	*Xtremolo	*	*	*	*	*	*
*	*	*Xtremolo	*	*	*	*	*	*	*
*Xtremolo	*	*	*	*	*	*	*	*	*
=88	=88	=88	=88	=88	=88	=88	=88	=88	=88
!LO:N:vis=8	!	!	!	!	!	!	!	!	!
4D/	.	4d\	4dd\	4dd\	.	4d/	4dd\	4dd\	4dd\
8r	.	8r	8r	8r	.	4r	4r	8r	8r
16r	.	16r	16r	16r	.	.	.	16r	16r
48d\LLL	.	48dd\LLL	48dd\LLL	48dd\LLL	.	.	.	48dd\LLL	48dd\LLL
48c#\	.	48cc#\	48cc#\	48cc#\	.	.	.	48cc#\	48cc#\
48B\JJJ	.	48b\JJJ	48b\JJJ	48b\JJJ	.	.	.	48b\JJJ	48b\JJJ
!LO:N:vis=16	!	!	!	!	!	!	!	!	!
8A\L	.	8a\L	8a/L	8a/L	.	2r	2r	8a/L	8a/L
!LO:N:vis=16	!	!	!	!	!	!	!	!	!
8B\	.	8b\	8b/	8b/	.	.	.	8b/	8b/
8A\	.	8a\	8a/	8a/	.	.	.	8a/	8a/
8G\J	.	8g\J	8g/J	8g/J	.	.	.	8g/J	8g/J
!	!	!	!	!LO:LB:g=original	!	!	!	!	!
=89	=89	=89	=89	=89	=89	=89	=89	=89	=89
4F#\	.	4f#\	4f#/	4f#/	.	1r	1r	4f#/	4f#/
8r	.	8r	8r	8r	.	.	.	8r	8r
16r	.	16r	16r	16r	.	.	.	16r	16r
48B\LLL	.	48b\LLL	48b/LLL	48b/LLL	.	.	.	48b/LLL	48b/LLL
48A\	.	48a\	48a/	48a/	.	.	.	48a/	48a/
48G\JJJ	.	48g\JJJ	48g/JJJ	48g/JJJ	.	.	.	48g/JJJ	48g/JJJ
8F#\L	.	8f#\L	8f#/L	8f#/L	.	.	.	8f#/L	8f#/L
8G\	.	8g\	8g/	8g/	.	.	.	8g/	8g/
8F#\	.	8f#\	8f#/	8f#/	.	.	.	8f#/	8f#/
8E\J	.	8e\J	8e/J	8e/J	.	.	.	8e/J	8e/J
!	!	!	!	!	!	!	!	!	!LO:LB:g=original
=90	=90	=90	=90	=90	=90	=90	=90	=90	=90
*	*	*	*^	*^	*	*	*	*	*
4D\	.	4d\	4d/	2.ryy	4d/	2.ryy	.	4r	4r	4d/	4d/
4D\	.	4d\	4d/ 4a 4ff#	.	4d/ 4a 4ff#	.	.	8.dd\L	8.dd\L	4a/	4ff#\
.	.	.	.	.	.	.	.	16dd\Jk	16dd\Jk	.	.
4G\	.	4g\	4d\ 4b 4gg	.	4d/ 4a 4gg	.	.	4dd\	4dd\	4b\	4gg\
4A\	.	4a\	4cc#/ 4ee	4a\	4cc#/ 4ee	4a\	.	4a/	4ee\	4cc#\	4ee\
=91	=91	=91	=91	=91	=91	=91	=91	=91	=91	=91	=91
4d\	.	4dd\	4d/ 4a 4ff#	2.ryy	4d/ 4a 4ff#	2.ryy	.	4dd\	4ff#\	4dd\	4ff#\
4D\	.	4d\	4d/ 4a 4aa	.	4d/ 4a 4aa	.	.	8.dd\L	8.dd\L	4a\	4aa\
.	.	.	.	.	.	.	.	16dd\Jk	16dd\Jk	.	.
4G\	.	4g\	4d/ 4b 4gg	.	4d/ 4b 4gg	.	.	4dd\	4dd\	4b\	4gg\
4A\	.	4a\	4cc#/ 4ee	4a\	4cc#\ 4ee	4a\	.	4a/	4ee\	4cc#\	4ee\
*	*	*	*v	*v	*	*	*	*	*	*	*
*	*	*	*	*v	*v	*	*	*	*	*
=92	=92	=92	=92	=92	=92	=92	=92	=92	=92
!	!	!LO:TX:t=P:problem=źródło zostało częściowo uszkodzone	!	!	!	!	!	!	!
4D\	.	4d\	4d/ 4dd	4d/ 4dd	.	4dd\	4ff#\	4dd\	4dd\
4r	.	4ryy	8d/L 8a 8ff#	8d/L 8a 8ff#	.	4r	4r	8dd\L	8ff#\L
.	.	.	8aa/J	8aa/J	.	.	.	8ff#\J	8aa\J
!	!	!	!	!	!	!	!	!LO:LB:g=original	!
4D\	.	2ryy	4d/ 4a 4ff#	4d/ 4a 4ff#	.	4dd\	4ff#\	4dd\	4ff#\
4r	.	.	8d/L 8a 8ff#	8d/L 8a 8ff#	.	4r	4r	8dd\L	8ff#\L
.	.	.	8aa/J	8aa/J	.	.	.	8ff#\J	8aa\J
!	!	!LO:LB:g=original	!	!	!	!	!	!	!
=93	=93	=93	=93	=93	=93	=93	=93	=93	=93
*	*	*	*	*^	*	*	*	*	*
8D\L	.	8d\L	4d/ 4a 4ff#	4a/ 4ff#	4d\	.	4d/	4dd\	4dd\	4ff#\
8F#\	.	8f#\	.	.	.	.	.	.	.	.
8A\	.	8a\	4d/ 4a 4ff#	4a/ 4ff#	4d\	.	4d/	4dd\	4a/	4ff#\
8F#\J	.	8f#\J	.	.	.	.	.	.	.	.
4D\	.	4d\	4d/ 4a 4ff#	4a/ 4ff#	4d\	.	4d/	4dd\	4a/	4ff#\
4r	.	4r	4r	4r	4r	.	4r	4r	4r	4r
*	*	*	*	*v	*v	*	*	*	*	*
==	==	==	==	==	==	==	==	==	==
*-	*-	*-	*-	*-	*-	*-	*-	*-	*-
!!!system-decoration: [(s1,s2)][(s3,s4)][(s5,s6,s7,s8)]
!!!AIN: 1 cbass 2 cor 2 oboe 1 viola 1 violn
!!!ENC: Berenika Jozajtis
!!!END: 2021-02-08
!!!ENC: Jan Barakat
!!!END: 2022-01-09
